!!!!SEGMENT: pl-cz--iii-105--001-003_dankowski-adalbert--missa-d-qui-tollis.krn
!!!cenid: 18xx:743
!!!COM: Dankowski, Adalbert
!!!COM-rismID: pe30000793
!!!CDT: ~1760-~1836
!!!CNT: Polish
!!!OPR: Missa D
!!!OTL: Qui tollis
!!!OMV: 003
!!!PDT:
!!!AGN: Sacred; Mass
!!!SMS-siglum: PL-CZ
!!!SMS-shelfmark: III-105
!!!SMS-shelfwork: 001-003 M
!!!SMS-variant:
!!!SMS-altvar:
!!!NIFC-rismSourceID: 300000109
!!!NIFC-rismChildID: 300000109
!!!NIFC-islandoraID: pl-cz:34145
!!!URL-pdf-islandora: https://repozytorium.nifc.pl/islandora/object/pl-cz%3A34145/datastream/PDF/view
!!!URL-scan: https://polish.musicsources.pl/pl/lokalizacje/galeria/rekopisy/6823/1 @EN{Scan on Polish Music Sources Website} @PL{Skany w portalu Dziedzictwo Muzyki Polskiej w otwartym dostępie}
!!!IIIF:
!!!ONB-nifc: UWAGA: części Mszy: Kyrie, Gloria, Qui tollis, Quoniam, Cum Sancto, Patrem, Et resurrexit, Sanctus, Benedictus, Agnus Dei, Dona nobis
!!!OMD:
!!!OMD-mod: Adagio
!!!AIN: 1 alto 1 bass 2 clars 2 cor 2 oboe 1 organ 1 soprn 1 tenor 1 timpa 1 viola 2 violn
!!!key: d
**kern	**fba	**dynam	**kern	**dynam	**kern	**dynam	**kern	**dynam	**kern	**text	**kern	**text	**kern	**text	**kern	**text	**kern	**kern	**kern	**kern	**kern	**kern	**kern
*	*	*	*group4	*	*group4	*	*group4	*	*group3	*	*group3	*	*group3	*	*group3	*	*	*group2	*group2	*group1	*group1	*group1	*group1
*part15	*part15	*part15	*part14	*part14	*part13	*part13	*part12	*part12	*part11	*part11	*part10	*part10	*part9	*part9	*part8	*part8	*part7	*part6	*part5	*part4	*part3	*part2	*part1
*staff15	*staff15	*	*staff14	*	*staff13	*	*staff12	*	*staff11	*staff11	*staff10	*staff10	*staff9	*staff9	*staff8	*staff8	*staff7	*staff6	*staff5	*staff4	*staff3	*staff2	*staff1
*I"Organo	*	*	*I"Viola Obligatto	*	*I"Violino Secundo	*	*I"Violino Primo	*	*I"Baſso	*	*I"Tenore	*	*I"Alto.	*	*I"Canto	*	*I"Timpano do D. A.	*I"Cornu Secundo ex D	*I"Cornu Primo ex D	*I"Clarinetto Secundo Ex A:	*I"Clarinetto Primo Ex A:	*I"Oboe Secundo Oblig:	*I"Oboe Primo Oblig:
*	*	*	*mI"Viola	*	*mI"Violino II	*	*mI"Violino I	*	*mI"Basso	*	*	*	*mI"Alto	*	*mI"Soprano	*	*mI"Timpani in D | A	*mI"Corno II in D	*mI"Corno I in D	*mI"Clarinetto II in A	*mI"Clarinetto I in A	*mI"Oboe II	*mI"Oboe I
*I'org	*	*	*I'vla	*	*I'vl 2	*	*I'vl 1	*	*I'B	*	*I'T	*	*I'A	*	*I'S	*	*I'timp	*I'cor 2 in D	*I'cor 1 in D	*I'cl 2 in A	*I'cl 1 in A	*I'ob 2	*I'ob 1
*Iorgan	*	*	*Iviola	*	*Ivioln	*	*Ivioln	*	*Ibass	*	*Itenor	*	*Ialto	*	*Isoprn	*	*Itimpa	*Icor	*Icor	*Iclars	*Iclars	*Ioboe	*Ioboe
*ICklav	*	*	*ICstr	*	*ICstr	*	*ICstr	*	*ICvox	*	*ICvox	*	*ICvox	*	*ICvox	*	*ICidio	*ICbras	*ICbras	*ICww	*ICww	*ICww	*ICww
*IGcont	*	*	*	*	*	*	*	*	*IGcoro	*	*IGcoro	*	*IGcoro	*	*IGcoro	*	*	*	*	*	*	*	*
*	*	*	*	*	*	*	*	*	*	*	*	*	*	*	*	*	*tacet	*tacet	*tacet	*tacet	*tacet	*tacet	*tacet
*clefF4	*	*	*clefC3	*	*clefG2	*	*clefG2	*	*clefF4	*	*clefC4	*	*clefC3	*	*clefC1	*	*	*	*	*	*	*	*
*	*	*	*	*	*	*	*	*	*	*	*mclefGv2	*	*mclefG2	*	*mclefG2	*	*	*	*	*	*	*	*
*k[b-]	*	*	*k[b-]	*	*k[b-]	*	*k[b-]	*	*k[b-]	*	*k[b-]	*	*k[b-]	*	*k[b-]	*	*	*	*	*	*	*	*
*d:	*	*	*d:	*	*d:	*	*d:	*	*d:	*	*d:	*	*d:	*	*d:	*	*d:	*d:	*d:	*d:	*d:	*d:	*d:
*M3/4	*	*	*M3/4	*	*M3/4	*	*M3/4	*	*M3/4	*	*M3/4	*	*M3/4	*	*M3/4	*	*	*	*	*	*	*	*
=-	=-	=-	=-	=-	=-	=-	=-	=-	=-	=-	=-	=-	=-	=-	=-	=-	=-	=-	=-	=-	=-	=-	=-
!LO:TX:a:t=adag&colon;:mod=	!	!	!LO:TX:a:i:t=adag&colon;:mod=	!	!LO:TX:a:t=adag&colon;Solo&colon;:mod=	!	!LO:TX:a:t=adag&colon;Solo:mod=	!	!LO:TX:a:t=adag&colon;:mod=	!	!LO:TX:a:i:t=adag&colon;:mod=	!	!	!	!	!	!LO:TX:a:t=Tacet:mod=	!LO:TX:a:t=Quitollis Tacet:mod=	!LO:TX:a:t=Quitollis Tacet:mod=	!LO:TX:a:t=Quitollis Tacet:mod=	!LO:TX:a:t=Quitollis Tacet:mod=	!LO:TX:a:t=Quitollis Tacet:mod=	!LO:TX:a:t=Quitollis Tacet:mod=
!LO:TX:a:i:t=Solo&colon;:mod=	!	!	!	!	!	!	!	!	!	!	!	!	!	!	!LO:TX:a:t=adag&colon;:mod=	!	!	!	!	!	!	!	!
8r	.	.	8r	.	8r	.	8a/	.	8r	.	8r	.	8r	.	8r	.	8ryy	8ryy	8ryy	8ryy	8ryy	8ryy	8ryy
=1	=1	=1	=1	=1	=1	=1	=1	=1	=1	=1	=1	=1	=1	=1	=1	=1	=1	=1	=1	=1	=1	=1	=1
!LO:MO:mod=*tremolo	!	!	!LO:MO:mod=*tremolo	!	!LO:MO:mod=*tremolo	!	!LO:MO:mod=*null:null	!	!	!	!	!	!	!	!	!	!	!	!	!	!	!	!
*null	*	*	*null	*	*null	*	*2\right	*	*	*	*	*	*	*	*	*	*	*	*	*	*	*	*
!	!	!	!LO:TX:a:i:t=Solo&colon;:mod=	!	!	!	!	!	!	!	!	!	!	!	!	!	!	!	!	!	!	!	!
8d\L	.	.	8f\L	.	8a/L	.	2dd\	.	0.r	.	0.r	.	0.r	.	0.r	.	2.ryy	2.ryy	2.ryy	2.ryy	2.ryy	2.ryy	2.ryy
8d\	.	.	8f\	.	8a/	.	.	.	.	.	.	.	.	.	.	.	.	.	.	.	.	.	.
8d\	.	.	8f\	.	8a/	.	.	.	.	.	.	.	.	.	.	.	.	.	.	.	.	.	.
8d\	.	.	8f\	.	8a/	.	.	.	.	.	.	.	.	.	.	.	.	.	.	.	.	.	.
.	.	.	.	.	.	.	8qgg/	.	.	.	.	.	.	.	.	.	.	.	.	.	.	.	.
8d\	.	.	8f\	.	8a/	.	8ff\L	.	.	.	.	.	.	.	.	.	.	.	.	.	.	.	.
8d\J	.	.	8f\J	.	8a/J	.	16ee\L	.	.	.	.	.	.	.	.	.	.	.	.	.	.	.	.
.	.	.	.	.	.	.	16dd\JJ	.	.	.	.	.	.	.	.	.	.	.	.	.	.	.	.
=2	=2	=2	=2	=2	=2	=2	=2	=2	=2	=2	=2	=2	=2	=2	=2	=2	=2	=2	=2	=2	=2	=2	=2
!LO:MO:mod=*null:null	!	!	!LO:MO:mod=*null:null	!	!LO:MO:mod=*null:null	!	!	!	!	!	!	!	!	!	!	!	!	!	!	!	!	!	!
*2\right	*	*	*2\right	*	*tremolo	*	*	*	*	*	*	*	*	*	*	*	*	*	*	*	*	*	*
!LO:MO:mod=*null:null	!	!	!LO:MO:mod=*null:null	!	!	!	!	!	!	!	!	!	!	!	!	!	!	!	!	!	!	!	!
*tremolo	*	*	*tremolo	*	*	*	*	*	*	*	*	*	*	*	*	*	*	*	*	*	*	*	*
8c#X\L	6	.	8e\L	.	8a/L	.	(4.aa\	.	.	.	.	.	.	.	.	.	2.ryy	2.ryy	2.ryy	2.ryy	2.ryy	2.ryy	2.ryy
8c#X\	.	.	8e\	.	8a/	.	.	.	.	.	.	.	.	.	.	.	.	.	.	.	.	.	.
8c#X\	.	.	8e\	.	8a/	.	.	.	.	.	.	.	.	.	.	.	.	.	.	.	.	.	.
8c#X\	.	.	8e\	.	8a/	.	16bb-\LL	.	.	.	.	.	.	.	.	.	.	.	.	.	.	.	.
.	.	.	.	.	.	.	16aa\JJ)	.	.	.	.	.	.	.	.	.	.	.	.	.	.	.	.
8c#X\	.	.	8e\	.	8a/	.	(16aa\LL	.	.	.	.	.	.	.	.	.	.	.	.	.	.	.	.
.	.	.	.	.	.	.	16gg\	.	.	.	.	.	.	.	.	.	.	.	.	.	.	.	.
8c#X\J	.	.	8e\J	.	8a/J	.	16ff\	.	.	.	.	.	.	.	.	.	.	.	.	.	.	.	.
.	.	.	.	.	.	.	16ee\JJ)	.	.	.	.	.	.	.	.	.	.	.	.	.	.	.	.
*Xtremolo	*	*	*Xtremolo	*	*Xtremolo	*	*	*	*	*	*	*	*	*	*	*	*	*	*	*	*	*	*
=3	=3	=3	=3	=3	=3	=3	=3	=3	=3	=3	=3	=3	=3	=3	=3	=3	=3	=3	=3	=3	=3	=3	=3
.	.	.	.	.	.	.	8qee/	.	.	.	.	.	.	.	.	.	.	.	.	.	.	.	.
8B-\L	.	.	8d\L	.	8b-/L	.	8dd\L	.	.	.	.	.	.	.	.	.	2.ryy	2.ryy	2.ryy	2.ryy	2.ryy	2.ryy	2.ryy
8B-\	.	.	8d\J	.	16a/L	.	16cc#X\L	.	.	.	.	.	.	.	.	.	.	.	.	.	.	.	.
.	.	.	.	.	16b-/JJ	.	16dd\JJ	.	.	.	.	.	.	.	.	.	.	.	.	.	.	.	.
8G\	6	.	8B-/L	.	4g/	.	4ee\	.	.	.	.	.	.	.	.	.	.	.	.	.	.	.	.
8G\	.	.	8B-/	.	.	.	.	.	.	.	.	.	.	.	.	.	.	.	.	.	.	.	.
8A\	#_	.	8A/	.	4e/	.	4cc#\	.	.	.	.	.	.	.	.	.	.	.	.	.	.	.	.
8A\J	x	.	8A/J	.	.	.	.	.	.	.	.	.	.	.	.	.	.	.	.	.	.	.	.
=4	=4	=4	=4	=4	=4	=4	=4	=4	=4	=4	=4	=4	=4	=4	=4	=4	=4	=4	=4	=4	=4	=4	=4
4d\	.	.	4A/	.	4f/	.	4dd\	.	.	.	.	.	.	.	.	.	2.ryy	2.ryy	2.ryy	2.ryy	2.ryy	2.ryy	2.ryy
4D\	.	.	4A/	.	8r	.	8r	.	.	.	.	.	.	.	.	.	.	.	.	.	.	.	.
.	.	.	.	.	(8f|</L	.	(8dd|>\L	.	.	.	.	.	.	.	.	.	.	.	.	.	.	.	.
8r	.	.	8r	.	8f|</	.	8dd|>\	.	.	.	.	.	.	.	.	.	.	.	.	.	.	.	.
8D\	.	.	8A/	.	8f|</J)	.	8dd|>\J)	.	.	.	.	.	.	.	.	.	.	.	.	.	.	.	.
=5	=5	=5	=5	=5	=5	=5	=5	=5	=5	=5	=5	=5	=5	=5	=5	=5	=5	=5	=5	=5	=5	=5	=5
4A\	4	.	4A/	.	8.fT/L	.	8.ddT\L	.	0.r	.	0.r	.	0.r	.	0.r	.	2.ryy	2.ryy	2.ryy	2.ryy	2.ryy	2.ryy	2.ryy
.	.	.	.	.	32e/LL	.	32cc#X\LL	.	.	.	.	.	.	.	.	.	.	.	.	.	.	.	.
.	.	.	.	.	32f/JJJ	.	32dd\JJJ	.	.	.	.	.	.	.	.	.	.	.	.	.	.	.	.
4AA/	#	.	4A/	.	8e/L	.	8cc#\L	.	.	.	.	.	.	.	.	.	.	.	.	.	.	.	.
.	.	.	.	.	(8g|</	.	(8ee|>\	.	.	.	.	.	.	.	.	.	.	.	.	.	.	.	.
8r	.	.	8r	.	8g|</	.	8ee|>\	.	.	.	.	.	.	.	.	.	.	.	.	.	.	.	.
8c#X\	6 5	.	8A/	.	8g|</J)	.	8ee|>\J)	.	.	.	.	.	.	.	.	.	.	.	.	.	.	.	.
!	!	!	!	!	!	!	!LO:LB:g=original	!	!	!	!	!	!	!	!	!	!	!	!	!	!	!	!
=6	=6	=6	=6	=6	=6	=6	=6	=6	=6	=6	=6	=6	=6	=6	=6	=6	=6	=6	=6	=6	=6	=6	=6
4d\	4	.	4A/	.	8.gT/L	.	8.eet\L	.	.	.	.	.	.	.	.	.	2.ryy	2.ryy	2.ryy	2.ryy	2.ryy	2.ryy	2.ryy
.	.	.	.	.	32f/LL	.	32dd\LL	.	.	.	.	.	.	.	.	.	.	.	.	.	.	.	.
.	.	.	.	.	32g/JJJ	.	32ee\JJJ	.	.	.	.	.	.	.	.	.	.	.	.	.	.	.	.
4D\	3	.	4A/	.	8f/L	.	8dd\L	.	.	.	.	.	.	.	.	.	.	.	.	.	.	.	.
!	!	!	!	!	!LO:TX:a:t=P:problem=mixed beam	!	!	!	!	!	!	!	!	!	!	!	!	!	!	!	!	!	!
!	!	!	!	!	!LO:SIC:s=(8dd|	!	!	!	!	!	!	!	!	!	!	!	!	!	!	!	!	!	!
.	.	.	.	.	8dd|>\J	.	(8ff|>\	.	.	.	.	.	.	.	.	.	.	.	.	.	.	.	.
!	!	!	!	!	!LO:LB:g=original	!	!	!	!	!	!	!	!	!	!	!	!	!	!	!	!	!	!
!	!	!	!	!	!LO:SIC:s=8dd|	!	!	!	!	!	!	!	!	!	!	!	!	!	!	!	!	!	!
8r	.	.	8r	.	(8dd|>\L	.	8ff|>\	.	.	.	.	.	.	.	.	.	.	.	.	.	.	.	.
8d\	.	.	8A/	.	8dd|>\J)	.	8ff|>\J)	.	.	.	.	.	.	.	.	.	.	.	.	.	.	.	.
!LO:LB:g=original	!	!	!LO:LB:g=original	!	!	!	!	!	!	!	!	!	!	!	!	!	!	!	!	!	!	!	!
=7	=7	=7	=7	=7	=7	=7	=7	=7	=7	=7	=7	=7	=7	=7	=7	=7	=7	=7	=7	=7	=7	=7	=7
4B-\	3	.	4B-/	.	(32dd\KLL	.	(32ff\KLL	.	.	.	.	.	.	.	.	.	2.ryy	2.ryy	2.ryy	2.ryy	2.ryy	2.ryy	2.ryy
.	.	.	.	.	16.cc#X\)	.	16.ee\)	.	.	.	.	.	.	.	.	.	.	.	.	.	.	.	.
.	.	.	.	.	(32cc#\K	.	(32ee\K	.	.	.	.	.	.	.	.	.	.	.	.	.	.	.	.
.	.	.	.	.	16.dd\JJ)	.	16.ff\JJ)	.	.	.	.	.	.	.	.	.	.	.	.	.	.	.	.
4A\	_	.	4B-/	.	(32dd\KLL	.	(32ff\KLL	.	.	.	.	.	.	.	.	.	.	.	.	.	.	.	.
.	.	.	.	.	16.ee\)	.	16.gg\)	.	.	.	.	.	.	.	.	.	.	.	.	.	.	.	.
.	.	.	.	.	(32ee\K	.	(32gg\K	.	.	.	.	.	.	.	.	.	.	.	.	.	.	.	.
.	.	.	.	.	16.dd\JJ)	.	16.ff\JJ)	.	.	.	.	.	.	.	.	.	.	.	.	.	.	.	.
4G#X\	.	.	4B-/	.	(32dd\KLL	.	(32ff\KLL	.	.	.	.	.	.	.	.	.	.	.	.	.	.	.	.
.	.	.	.	.	16.cc#\)	.	16.ee\)	.	.	.	.	.	.	.	.	.	.	.	.	.	.	.	.
.	.	.	.	.	(32cc#\K	.	(32ee\K	.	.	.	.	.	.	.	.	.	.	.	.	.	.	.	.
.	.	.	.	.	16.dd\JJ)	.	16.ff\JJ)	.	.	.	.	.	.	.	.	.	.	.	.	.	.	.	.
=8	=8	=8	=8	=8	=8	=8	=8	=8	=8	=8	=8	=8	=8	=8	=8	=8	=8	=8	=8	=8	=8	=8	=8
4A\	4	.	4A/	.	(8.dd\L	.	8.ffT\L	.	.	.	.	.	.	.	.	.	2.ryy	2.ryy	2.ryy	2.ryy	2.ryy	2.ryy	2.ryy
.	.	.	.	.	32cc#X\LL	.	32ee\LL	.	.	.	.	.	.	.	.	.	.	.	.	.	.	.	.
.	.	.	.	.	32dd\JJJ)	.	32ff\JJJ	.	.	.	.	.	.	.	.	.	.	.	.	.	.	.	.
4AA/	#	.	4A/	.	4cc#\	.	8ee\L	.	.	.	.	.	.	.	.	.	.	.	.	.	.	.	.
.	.	.	.	.	.	.	(8aa|>\	.	.	.	.	.	.	.	.	.	.	.	.	.	.	.	.
4r	.	.	4r	.	4r	.	8aa|>\	.	.	.	.	.	.	.	.	.	.	.	.	.	.	.	.
.	.	.	.	.	.	.	8aa|>\J)	.	.	.	.	.	.	.	.	.	.	.	.	.	.	.	.
=9	=9	=9	=9	=9	=9	=9	=9	=9	=9	=9	=9	=9	=9	=9	=9	=9	=9	=9	=9	=9	=9	=9	=9
4AA/	#	.	(8c#X\L	.	(8e/L	.	(8.aa\L	.	0.r	.	0.r	.	1.r	.	0.r	.	2.ryy	2.ryy	2.ryy	2.ryy	2.ryy	2.ryy	2.ryy
.	.	.	8d\)	.	8g/)	.	.	.	.	.	.	.	.	.	.	.	.	.	.	.	.	.	.
.	.	.	.	.	.	.	16cc#X\Jk)	.	.	.	.	.	.	.	.	.	.	.	.	.	.	.	.
4AA/	_	.	(8c#\	.	(8e/	.	8r	.	.	.	.	.	.	.	.	.	.	.	.	.	.	.	.
.	.	.	8d\)	.	8g/)	.	8cc#\	.	.	.	.	.	.	.	.	.	.	.	.	.	.	.	.
4AA/	x	.	(8c#\	.	(8e/	.	8.cc#t\L	.	.	.	.	.	.	.	.	.	.	.	.	.	.	.	.
.	.	.	8d\J)	.	8g/J)	.	.	.	.	.	.	.	.	.	.	.	.	.	.	.	.	.	.
!	!	!	!	!	!	!	!LO:SIC:s=32bLL	!	!	!	!	!	!	!	!	!	!	!	!	!	!	!	!
.	.	.	.	.	.	.	32b-\LL	.	.	.	.	.	.	.	.	.	.	.	.	.	.	.	.
.	.	.	.	.	.	.	32cc#\JJJ	.	.	.	.	.	.	.	.	.	.	.	.	.	.	.	.
=10	=10	=10	=10	=10	=10	=10	=10	=10	=10	=10	=10	=10	=10	=10	=10	=10	=10	=10	=10	=10	=10	=10	=10
!	!	!	!	!	!	!	!LO:SIC:v:s=(8cc#\L	!	!	!	!	!	!	!	!	!	!	!	!	!	!	!	!
4D\	.	.	(8e\L	.	(8g/L	.	(8cc\L	.	.	.	.	.	.	.	.	.	2.ryy	2.ryy	2.ryy	2.ryy	2.ryy	2.ryy	2.ryy
.	.	.	8d\J)	.	8f/J)	.	8dd\J)	.	.	.	.	.	.	.	.	.	.	.	.	.	.	.	.
4D\	.	.	4A/	.	4f/	.	8r	.	.	.	.	.	.	.	.	.	.	.	.	.	.	.	.
.	.	.	.	.	.	.	(8aa|>\L	.	.	.	.	.	.	.	.	.	.	.	.	.	.	.	.
4r	.	.	4r	.	4r	.	8aa|>\	.	.	.	.	.	.	.	.	.	.	.	.	.	.	.	.
.	.	.	.	.	.	.	8aa|>\J)	.	.	.	.	.	.	.	.	.	.	.	.	.	.	.	.
!	!	!	!	!	!	!	!LO:LB:g=original	!	!	!	!	!	!	!	!	!	!	!	!	!	!	!	!
=11	=11	=11	=11	=11	=11	=11	=11	=11	=11	=11	=11	=11	=11	=11	=11	=11	=11	=11	=11	=11	=11	=11	=11
4AA/	#	.	(8c#X\L	.	(8e/L	.	(8.aa\L	.	.	.	.	.	2.r	.	.	.	2.ryy	2.ryy	2.ryy	2.ryy	2.ryy	2.ryy	2.ryy
.	.	.	8d\)	.	8g/)	.	.	.	.	.	.	.	.	.	.	.	.	.	.	.	.	.	.
.	.	.	.	.	.	.	16cc#X\Jk)	.	.	.	.	.	.	.	.	.	.	.	.	.	.	.	.
4AA/	_	.	(8c#\	.	(8e/	.	8r	.	.	.	.	.	.	.	.	.	.	.	.	.	.	.	.
.	.	.	8d\)	.	8g/)	.	8cc#\	.	.	.	.	.	.	.	.	.	.	.	.	.	.	.	.
4AA/	x	.	(8c#\	.	(8e/	.	8.cc#t\L	.	.	.	.	.	.	.	.	.	.	.	.	.	.	.	.
.	.	.	8d\J)	.	8g/J)	.	.	.	.	.	.	.	.	.	.	.	.	.	.	.	.	.	.
!	!	!	!	!	!	!	!LO:SIC:s=32bLL	!	!	!	!	!	!	!	!	!	!	!	!	!	!	!	!
.	.	.	.	.	.	.	32b-\LL	.	.	.	.	.	.	.	.	.	.	.	.	.	.	.	.
.	.	.	.	.	.	.	32cc#\JJJ	.	.	.	.	.	.	.	.	.	.	.	.	.	.	.	.
=12	=12	=12	=12	=12	=12	=12	=12	=12	=12	=12	=12	=12	=12	=12	=12	=12	=12	=12	=12	=12	=12	=12	=12
!	!	!	!	!	!	!	!LO:SIC:v:s=(8cc#|L	!	!	!	!	!	!LO:TX:a:i:t=adag:mod=	!	!	!	!	!	!	!	!	!	!
4D\	.	.	8e\L	.	(8g/L	.	(8cc\L	.	.	.	.	.	4r	.	.	.	2.ryy	2.ryy	2.ryy	2.ryy	2.ryy	2.ryy	2.ryy
.	.	.	8d\J	.	8f/J)	.	8dd\J)	.	.	.	.	.	.	.	.	.	.	.	.	.	.	.	.
4D\	.	.	4A/	.	4f/	.	4dd\	.	.	.	.	.	4r	.	.	.	.	.	.	.	.	.	.
!	!	!	!	!	!	!	!	!	!	!	!	!	!LO:TX:a:i:t=Solo&colon;:mod=	!	!	!	!	!	!	!	!	!	!
4r	.	.	4r	.	4r	.	4r	.	.	.	.	.	8r	.	.	.	.	.	.	.	.	.	.
!	!	!	!	!	!	!	!	!	!	!	!	!	!LO:TX:a:i:t= :mod=Solo	!	!	!	!	!	!	!	!	!	!
.	.	.	.	.	.	.	.	.	.	.	.	.	8d\	Qui	.	.	.	.	.	.	.	.	.
!	!	!	!	!	!LO:LB:g=original	!	!	!	!	!	!	!	!	!	!	!	!	!	!	!	!	!	!
=13	=13	=13	=13	=13	=13	=13	=13	=13	=13	=13	=13	=13	=13	=13	=13	=13	=13	=13	=13	=13	=13	=13	=13
!	!	!LO:DY:a:t=pio&colon;:mod= 	!	!LO:DY:a:t=pio&colon;:mod=%s	!	!	!	!LO:DY:a:t=pio&colon;:mod= 	!	!	!	!	!	!	!	!	!	!	!	!	!	!	!
8r	.	p	8c#X\L	p	8r	.	8r	p	0.r	.	0.r	.	4a\	tol-	0.r	.	2.ryy	2.ryy	2.ryy	2.ryy	2.ryy	2.ryy	2.ryy
!	!	!LO:DY:t= :mod=%s	!	!	!	!LO:DY:a:t=pio&colon;:mod=%s	!	!LO:DY:t= :mod=%s	!	!	!	!	!	!	!	!	!	!	!	!	!	!	!
8d\L	5 3	p	8d\	.	8f/L	p	8ff\L	p	.	.	.	.	.	.	.	.	.	.	.	.	.	.	.
8c#X\	3	.	8c#\	.	8e/	.	8ee\	.	.	.	.	.	4a\	-lis	.	.	.	.	.	.	.	.	.
8d\	3	.	8d\	.	8f/	.	8ff\	.	.	.	.	.	.	.	.	.	.	.	.	.	.	.	.
8e\	3	.	8e\	.	8g/	.	8gg\	.	.	.	.	.	4a\	pec-	.	.	.	.	.	.	.	.	.
8c#\J	3	.	8c#\J	.	8e/J	.	8ee\J	.	.	.	.	.	.	.	.	.	.	.	.	.	.	.	.
=14	=14	=14	=14	=14	=14	=14	=14	=14	=14	=14	=14	=14	=14	=14	=14	=14	=14	=14	=14	=14	=14	=14	=14
4d\	.	.	4A/	.	(8e/L	.	(8ee\L	.	.	.	.	.	8.a\L	-ca-	.	.	2.ryy	2.ryy	2.ryy	2.ryy	2.ryy	2.ryy	2.ryy
.	.	.	.	.	8f/J)	.	8ff\J)	.	.	.	.	.	.	.	.	.	.	.	.	.	.	.	.
.	.	.	.	.	.	.	.	.	.	.	.	.	16f\Jk	.	.	.	.	.	.	.	.	.	.
4D\	.	.	4A/	.	8r	.	8r	.	.	.	.	.	4d\	-ta	.	.	.	.	.	.	.	.	.
.	.	.	.	.	(8f|</L	.	(8dd|>\L	.	.	.	.	.	.	.	.	.	.	.	.	.	.	.	.
4r	.	.	4r	.	8f|</	.	8dd|>\	.	.	.	.	.	8r	.	.	.	.	.	.	.	.	.	.
*	*	*	*	*	*	*	*	*	*	*	*	*	*	*ij	*	*	*	*	*	*	*	*	*
.	.	.	.	.	8f|</J)	.	8dd|>\J)	.	.	.	.	.	8d\	pec-	.	.	.	.	.	.	.	.	.
!LO:LB:g=original	!	!	!LO:LB:g=original	!	!	!	!	!	!	!	!	!	!	!	!	!	!	!	!	!	!	!	!
=15	=15	=15	=15	=15	=15	=15	=15	=15	=15	=15	=15	=15	=15	=15	=15	=15	=15	=15	=15	=15	=15	=15	=15
!	!	!	!	!	!	!	!	!	!	!	!	!	!LO:MO:mod=*null:null	!	!	!	!	!	!	!	!	!	!
*	*	*	*	*	*	*	*	*	*	*	*	*	*2\right	*	*	*	*	*	*	*	*	*	*
8r	.	.	8r	.	2f/	.	2dd\	.	.	.	.	.	2dd\	-ca-	.	.	2.ryy	2.ryy	2.ryy	2.ryy	2.ryy	2.ryy	2.ryy
8d\L	3_	.	4A/	.	.	.	.	.	.	.	.	.	.	.	.	.	.	.	.	.	.	.	.
8c#X\	.	.	.	.	.	.	.	.	.	.	.	.	.	.	.	.	.	.	.	.	.	.	.
8B-\	.	.	4B-/	.	.	.	.	.	.	.	.	.	.	.	.	.	.	.	.	.	.	.	.
8A\	.	.	.	.	(16g/LL	.	(16ee\LL	.	.	.	.	.	4dd\	-ta	.	.	.	.	.	.	.	.	.
*	*	*	*	*	*	*	*	*	*	*	*	*	*	*Xij	*	*	*	*	*	*	*	*	*
.	.	.	.	.	16f/	.	16dd\	.	.	.	.	.	.	.	.	.	.	.	.	.	.	.	.
8G#X\J	x	.	8B-/	.	16e/	.	16cc#X\	.	.	.	.	.	.	.	.	.	.	.	.	.	.	.	.
.	.	.	.	.	16f/JJ)	.	16dd\JJ)	.	.	.	.	.	.	.	.	.	.	.	.	.	.	.	.
=16	=16	=16	=16	=16	=16	=16	=16	=16	=16	=16	=16	=16	=16	=16	=16	=16	=16	=16	=16	=16	=16	=16	=16
4A\	#	.	4A/	.	(8f/L	.	(8dd\L	.	.	.	.	.	8dd\L	mun-	.	.	2.ryy	2.ryy	2.ryy	2.ryy	2.ryy	2.ryy	2.ryy
!	!	!	!	!	!	!	!LO:SIC:v:s=8cc#\J)	!	!	!	!	!	!	!	!	!	!	!	!	!	!	!	!
.	.	.	.	.	8e/J)	.	8cc\J)	.	.	.	.	.	8cc#X\J	.	.	.	.	.	.	.	.	.	.
4AA/	.	.	4A/	.	8r	.	8r	.	.	.	.	.	4cc#\	-di	.	.	.	.	.	.	.	.	.
!	!	!	!	!	!	!	!LO:SIC:v:s=(8cc#|>\L	!	!	!	!	!	!	!	!	!	!	!	!	!	!	!	!
.	.	.	.	.	(8e|</L	.	(8cc|>\L	.	.	.	.	.	.	.	.	.	.	.	.	.	.	.	.
!	!	!	!	!	!	!	!LO:SIC:v:s=8cc#|>\	!	!	!	!	!	!LO:LB:g=original	!	!	!	!	!	!	!	!	!	!
4r	.	.	4r	.	8e|</	.	8cc|>\	.	.	.	.	.	8r	.	.	.	.	.	.	.	.	.	.
!	!	!	!	!	!	!	!LO:SIC:v:s=8cc#|>\J)	!	!	!	!	!	!	!	!	!	!	!	!	!	!	!	!
.	.	.	.	.	8e|</J)	.	8cc|>\J)	.	.	.	.	.	8cc#\	pec-	.	.	.	.	.	.	.	.	.
=17	=17	=17	=17	=17	=17	=17	=17	=17	=17	=17	=17	=17	=17	=17	=17	=17	=17	=17	=17	=17	=17	=17	=17
8r	.	.	8r	.	2f/	.	2dd\	.	2.r	.	2.r	.	2dd\	-ca-	2.r	.	2.ryy	2.ryy	2.ryy	2.ryy	2.ryy	2.ryy	2.ryy
8d\L	3_	.	4A/	.	.	.	.	.	.	.	.	.	.	.	.	.	.	.	.	.	.	.	.
8c#X\	.	.	.	.	.	.	.	.	.	.	.	.	.	.	.	.	.	.	.	.	.	.	.
8B-\	.	.	4B-/	.	.	.	.	.	.	.	.	.	.	.	.	.	.	.	.	.	.	.	.
8A\	.	.	.	.	(16g/LL	.	(16ee\LL	.	.	.	.	.	4dd\	-ta	.	.	.	.	.	.	.	.	.
.	.	.	.	.	16f/	.	16dd\	.	.	.	.	.	.	.	.	.	.	.	.	.	.	.	.
!	!	!	!	!	!	!	!LO:SIC:v:s=16cc#\)	!	!	!	!	!	!	!	!	!	!	!	!	!	!	!	!
8G#X\J	x	.	8B-/	.	16e/	.	16cc\)	.	.	.	.	.	.	.	.	.	.	.	.	.	.	.	.
.	.	.	.	.	16f/JJ)	.	16dd\JJ	.	.	.	.	.	.	.	.	.	.	.	.	.	.	.	.
!	!	!	!	!	!	!	!LO:LB:g=original	!	!	!	!	!	!	!	!	!	!	!	!	!	!	!	!
=18	=18	=18	=18	=18	=18	=18	=18	=18	=18	=18	=18	=18	=18	=18	=18	=18	=18	=18	=18	=18	=18	=18	=18
4A\	#	.	4A/	.	8f/L	.	8dd\L	.	2.r;>	.	2.r;>	.	8dd\L	mun-	2.r;>	.	2.ryy	2.ryy	2.ryy	2.ryy	2.ryy	2.ryy	2.ryy
.	.	.	.	.	8e/J	.	8cc#X\J	.	.	.	.	.	8cc#X\J	.	.	.	.	.	.	.	.	.	.
4AA;/	.	.	4A;>/	.	4e;>/	.	4cc#;>\	.	.	.	.	.	4cc#;>\	-di	.	.	.	.	.	.	.	.	.
4r	.	.	4r	.	4r	.	4r	.	.	.	.	.	4r	.	.	.	.	.	.	.	.	.	.
=19	=19	=19	=19	=19	=19	=19	=19	=19	=19	=19	=19	=19	=19	=19	=19	=19	=19	=19	=19	=19	=19	=19	=19
!	!	!	!	!	!	!	!	!	!LO:MO:mod=*null:null	!	!LO:MO:mod=*null:null	!	!	!	!LO:MO:mod=*null:null	!	!	!	!	!	!	!	!
*	*	*	*	*	*	*	*	*	*2\right	*	*2\right	*	*	*	*2\right	*	*	*	*	*	*	*	*
!!LO:TX:a:t= :mod=Tutti
!	!	!LO:DY:t= :mod=%s	!	!	!	!	!	!	!	!	!	!	!	!	!	!	!	!	!	!	!	!	!
!	!	!LO:MO:mod=!LO&colon;DY&colon;ed=brack	!	!	!	!	!	!	!	!	!	!	!	!	!	!	!	!	!	!	!	!	!
!LO:TX:a:i:t=tutti:mod=	!	!null	!LO:SIC:s=8c	!LO:DY:a:t=for,:mod=%s	!	!LO:DY:a:t=for&colon;:mod= 	!	!LO:DY:a:t=for.:rj:mod= 	!	!LO:MO:mod=mi-	!	!LO:MO:mod=mi-	!	!	!	!LO:MO:mod=mi-	!	!	!	!	!	!	!
8F\	.	f	8cn\	f	16r	f	16r	f	2F\	Mi-	2c\	Mi-	2a\	mi-	2ff\	Mi-	2.ryy	2.ryy	2.ryy	2.ryy	2.ryy	2.ryy	2.ryy
!	!	!	!	!	!	!LO:DY:t= :mod=%s	!	!LO:DY:t= :mod=%s	!	!	!	!	!	!	!	!	!	!	!	!	!	!	!
.	.	.	.	.	16a|</LL	f	16ff|>\LL	f	.	.	.	.	.	.	.	.	.	.	.	.	.	.	.
8r	.	.	8r	.	(16g/	.	(16ee\	.	.	.	.	.	.	.	.	.	.	.	.	.	.	.	.
.	.	.	.	.	16a/JJ)	.	16ff\JJ)	.	.	.	.	.	.	.	.	.	.	.	.	.	.	.	.
!	!	!	!	!	!LO:LB:g=original	!	!	!	!	!	!	!	!	!	!	!	!	!	!	!	!	!	!
8F\	.	.	8c\	.	16r	.	16r	.	.	.	.	.	.	.	.	.	.	.	.	.	.	.	.
.	.	.	.	.	16a|</LL	.	16ff|>\LL	.	.	.	.	.	.	.	.	.	.	.	.	.	.	.	.
8r	.	.	8r	.	(16g/	.	(16ee\	.	.	.	.	.	.	.	.	.	.	.	.	.	.	.	.
.	.	.	.	.	16a/JJ)	.	16ff\JJ)	.	.	.	.	.	.	.	.	.	.	.	.	.	.	.	.
8F\	.	.	8c\	.	16r	.	16r	.	4F\	-ſe-	4c\	-ſe-	4a\	-ſe-	4ff\	-ſe-	.	.	.	.	.	.	.
.	.	.	.	.	16a|</LL	.	16ff|>\LL	.	.	.	.	.	.	.	.	.	.	.	.	.	.	.	.
8r	.	.	8r	.	(16g/	.	(16ee\	.	.	.	.	.	.	.	.	.	.	.	.	.	.	.	.
.	.	.	.	.	16a/JJ)	.	16ff\JJ)	.	.	.	.	.	.	.	.	.	.	.	.	.	.	.	.
=20	=20	=20	=20	=20	=20	=20	=20	=20	=20	=20	=20	=20	=20	=20	=20	=20	=20	=20	=20	=20	=20	=20	=20
8G\	6	.	8c\	.	16r	.	16r	.	2G\	-re-	2c\	-re-	2b-\	-re-	2ee\	-re-	2.ryy	2.ryy	2.ryy	2.ryy	2.ryy	2.ryy	2.ryy
.	.	.	.	.	16b-|</LL	.	16ee|>\LL	.	.	.	.	.	.	.	.	.	.	.	.	.	.	.	.
8r	_	.	8r	.	(16a/	.	(16dd\	.	.	.	.	.	.	.	.	.	.	.	.	.	.	.	.
.	.	.	.	.	16b-/JJ)	.	16ee\JJ)	.	.	.	.	.	.	.	.	.	.	.	.	.	.	.	.
8G\	x	.	8c\	.	16r	.	16r	.	.	.	.	.	.	.	.	.	.	.	.	.	.	.	.
.	.	.	.	.	16b-|</LL	.	16ee|>\LL	.	.	.	.	.	.	.	.	.	.	.	.	.	.	.	.
8r	.	.	8r	.	(16a/	.	(16dd\	.	.	.	.	.	.	.	.	.	.	.	.	.	.	.	.
.	.	.	.	.	16b-/JJ)	.	16ee\JJ)	.	.	.	.	.	.	.	.	.	.	.	.	.	.	.	.
8G\	.	.	8c\	.	16r	.	16r	.	4G\	-re	4c\	-re	4b-\	-re	4ee\	-re	.	.	.	.	.	.	.
.	.	.	.	.	16b-|</LL	.	16ee|>\LL	.	.	.	.	.	.	.	.	.	.	.	.	.	.	.	.
8r	.	.	8r	.	(16a/	.	(16dd\	.	.	.	.	.	.	.	.	.	.	.	.	.	.	.	.
.	.	.	.	.	16b-/JJ)	.	16ee\JJ)	.	.	.	.	.	.	.	.	.	.	.	.	.	.	.	.
!	!	!	!LO:PB:g=original	!	!	!	!	!	!	!	!	!	!	!	!	!	!	!	!	!	!	!	!
=21	=21	=21	=21	=21	=21	=21	=21	=21	=21	=21	=21	=21	=21	=21	=21	=21	=21	=21	=21	=21	=21	=21	=21
*	*	*	*	*	*	*	*	*	*	*ij	*	*	*	*ij	*	*ij	*	*	*	*	*	*	*
!LO:SIC:s=8C	!	!	!	!LO:DY:a:t=f&colon;:mod= 	!	!	!	!	!	!LO:MO:mod=mi-	!	!LO:MO:mod=mi-	!	!	!	!LO:MO:mod=mi-	!	!	!	!	!	!	!
8Cn/	.	.	8c\	f	16r	.	16r	.	2C/	Mi-	2c\	Mi-	2g\	mi-	2ee\	Mi-	2.ryy	2.ryy	2.ryy	2.ryy	2.ryy	2.ryy	2.ryy
.	.	.	.	.	16g|</LL	.	16ee|>\LL	.	.	.	.	.	.	.	.	.	.	.	.	.	.	.	.
8r	.	.	8r	.	(16f/	.	(16dd\	.	.	.	.	.	.	.	.	.	.	.	.	.	.	.	.
.	.	.	.	.	16g/JJ)	.	16ee\JJ)	.	.	.	.	.	.	.	.	.	.	.	.	.	.	.	.
8C/	.	.	8c\	.	16r	.	16r	.	.	.	.	.	.	.	.	.	.	.	.	.	.	.	.
.	.	.	.	.	16g|</LL	.	16ee|>\LL	.	.	.	.	.	.	.	.	.	.	.	.	.	.	.	.
8r	.	.	8r	.	(16f/	.	(16dd\	.	.	.	.	.	.	.	.	.	.	.	.	.	.	.	.
.	.	.	.	.	16g/JJ)	.	16ee\JJ)	.	.	.	.	.	.	.	.	.	.	.	.	.	.	.	.
!LO:LB:g=original	!	!	!	!	!	!	!	!	!	!	!	!	!	!	!	!	!	!	!	!	!	!	!
8C/	.	.	8c\	.	16r	.	16r	.	4C/	-ſe-	4c\	-ſe-	4g\	-ſe-	4ee\	-ſe-	.	.	.	.	.	.	.
.	.	.	.	.	16g|</LL	.	16ee|>\LL	.	.	.	.	.	.	.	.	.	.	.	.	.	.	.	.
8r	.	.	8r	.	(16f/	.	(16dd\	.	.	.	.	.	.	.	.	.	.	.	.	.	.	.	.
.	.	.	.	.	16g/JJ)	.	16ee\JJ)	.	.	.	.	.	.	.	.	.	.	.	.	.	.	.	.
=22	=22	=22	=22	=22	=22	=22	=22	=22	=22	=22	=22	=22	=22	=22	=22	=22	=22	=22	=22	=22	=22	=22	=22
8F\	.	.	8c\	.	16r	.	16r	.	2F\	-re-	2c\	-re-	2a\	-re-	2ff\	-re-	2.ryy	2.ryy	2.ryy	2.ryy	2.ryy	2.ryy	2.ryy
.	.	.	.	.	16a|</LL	.	16ff|>\LL	.	.	.	.	.	.	.	.	.	.	.	.	.	.	.	.
8r	.	.	8r	.	(16g/	.	(16ee\	.	.	.	.	.	.	.	.	.	.	.	.	.	.	.	.
.	.	.	.	.	16a/JJ)	.	16ff\JJ)	.	.	.	.	.	.	.	.	.	.	.	.	.	.	.	.
!	!	!	!	!	!	!	!LO:LB:g=original	!	!	!	!	!	!	!	!	!	!	!	!	!	!	!	!
8F\	.	.	8c\	.	16r	.	16r	.	.	.	.	.	.	.	.	.	.	.	.	.	.	.	.
.	.	.	.	.	16a|</LL	.	16ff|>\LL	.	.	.	.	.	.	.	.	.	.	.	.	.	.	.	.
8r	.	.	8r	.	(16g/	.	(16ee\	.	.	.	.	.	.	.	.	.	.	.	.	.	.	.	.
.	.	.	.	.	16a/JJ)	.	16ff\JJ)	.	.	.	.	.	.	.	.	.	.	.	.	.	.	.	.
8F\	.	.	8c\	.	16r	.	16r	.	4F\	-re	4c\	-re	4a\	-re	4ff\	-re	.	.	.	.	.	.	.
*	*	*	*	*	*	*	*	*	*	*	*	*	*	*	*	*Xij	*	*	*	*	*	*	*
.	.	.	.	.	16a|</LL	.	16ff|>\LL	.	.	.	.	.	.	.	.	.	.	.	.	.	.	.	.
8r	.	.	8r	.	(16g/	.	(16ee\	.	.	.	.	.	.	.	.	.	.	.	.	.	.	.	.
.	.	.	.	.	16a/JJ)	.	16ff\JJ)	.	.	.	.	.	.	.	.	.	.	.	.	.	.	.	.
=23	=23	=23	=23	=23	=23	=23	=23	=23	=23	=23	=23	=23	=23	=23	=23	=23	=23	=23	=23	=23	=23	=23	=23
!	!	!	!	!	!	!	!	!	!	!LO:MO:mod=mi-	!	!	!	!	!	!	!	!	!	!	!	!	!
8G\	6	.	8c\	.	16r	.	16r	.	(4G\	Mi-	2c\	mi-	2b-\	mi-	(4ee\	mi-	2.ryy	2.ryy	2.ryy	2.ryy	2.ryy	2.ryy	2.ryy
.	.	.	.	.	16b-|>\LL	.	16ee|>\LL	.	.	.	.	.	.	.	.	.	.	.	.	.	.	.	.
8r	_	.	8r	.	(16a\	.	(16dd\	.	.	.	.	.	.	.	.	.	.	.	.	.	.	.	.
.	.	.	.	.	16b-\JJ)	.	16ee\JJ)	.	.	.	.	.	.	.	.	.	.	.	.	.	.	.	.
8E\	x	.	8c\	.	16r	.	16r	.	4E\)	.	.	.	.	.	4gg\)	.	.	.	.	.	.	.	.
.	.	.	.	.	16b-|>\LL	.	16gg|>\LL	.	.	.	.	.	.	.	.	.	.	.	.	.	.	.	.
8r	.	.	8r	.	(16a\	.	(16ff\	.	.	.	.	.	.	.	.	.	.	.	.	.	.	.	.
.	.	.	.	.	16b-\JJ)	.	16gg\JJ)	.	.	.	.	.	.	.	.	.	.	.	.	.	.	.	.
8C/	.	.	8c\	.	16r	.	16r	.	4C/	-ſe-	4c\	-ſe-	4b-\	-ſe-	4gg\	-ſe-	.	.	.	.	.	.	.
.	.	.	.	.	16b-|>\LL	.	16gg|>\LL	.	.	.	.	.	.	.	.	.	.	.	.	.	.	.	.
8r	.	.	8r	.	(16a\	.	(16ff\	.	.	.	.	.	.	.	.	.	.	.	.	.	.	.	.
.	.	.	.	.	16b-\JJ)	.	16gg\JJ)	.	.	.	.	.	.	.	.	.	.	.	.	.	.	.	.
!	!	!	!	!	!	!	!	!	!	!	!LO:LB:g=original	!	!	!	!LO:LB:g=original	!	!	!	!	!	!	!	!
=24	=24	=24	=24	=24	=24	=24	=24	=24	=24	=24	=24	=24	=24	=24	=24	=24	=24	=24	=24	=24	=24	=24	=24
8F\	.	.	8c\	.	16r	.	16r	.	(4F\	-re-	2c\	-re-	(4a\	-re-	(4ff\	-re-	2.ryy	2.ryy	2.ryy	2.ryy	2.ryy	2.ryy	2.ryy
.	.	.	.	.	16a|</LL	.	16ff|>\LL	.	.	.	.	.	.	.	.	.	.	.	.	.	.	.	.
8r	.	.	8r	.	(16b-/	.	(16gg\	.	.	.	.	.	.	.	.	.	.	.	.	.	.	.	.
.	.	.	.	.	16a/JJ)	.	16ff\JJ)	.	.	.	.	.	.	.	.	.	.	.	.	.	.	.	.
8G\	6	.	8c\	.	16r	.	16r	.	4G\)	.	.	.	4b-\)	.	4ee\)	.	.	.	.	.	.	.	.
!	!	!	!	!	!LO:SIC:s=16b-|LL	!	!	!	!	!	!	!	!	!	!	!	!	!	!	!	!	!	!
.	.	.	.	.	16a|</LL	.	16ee|>\LL	.	.	.	.	.	.	.	.	.	.	.	.	.	.	.	.
!	!	!	!	!	!LO:SIC:s=(16a	!	!	!	!	!	!	!	!	!	!	!	!	!	!	!	!	!	!
8r	.	.	8r	.	(16b-/	.	(16dd\	.	.	.	.	.	.	.	.	.	.	.	.	.	.	.	.
!	!	!	!	!	!LO:SIC:s=16b-JJ)	!	!	!	!	!	!	!	!	!	!	!	!	!	!	!	!	!	!
.	.	.	.	.	16a/JJ)	.	16ee\JJ)	.	.	.	.	.	.	.	.	.	.	.	.	.	.	.	.
8A\	6	.	8c\	.	16r	.	16r	.	4A\	-re	4c\	-re	4cc\	-re	4ff\	-re	.	.	.	.	.	.	.
*	*	*	*	*	*	*	*	*	*	*Xij	*	*	*	*Xij	*	*	*	*	*	*	*	*	*
.	.	.	.	.	16a|</LL	.	16ff|>\LL	.	.	.	.	.	.	.	.	.	.	.	.	.	.	.	.
8r	.	.	8r	.	(16b-/	.	(16ee\	.	.	.	.	.	.	.	.	.	.	.	.	.	.	.	.
.	.	.	.	.	16a/JJ)	.	16ff\JJ)	.	.	.	.	.	.	.	.	.	.	.	.	.	.	.	.
!	!	!	!	!	!	!	!	!	!LO:LB:g=original	!	!	!	!LO:LB:g=original	!	!	!	!	!	!	!	!	!	!
=25	=25	=25	=25	=25	=25	=25	=25	=25	=25	=25	=25	=25	=25	=25	=25	=25	=25	=25	=25	=25	=25	=25	=25
8B-\	6	.	8c\	.	16r	.	16r	.	4B-\	no-	4d\	no-	4b-\	no-	4gg\	no-	2.ryy	2.ryy	2.ryy	2.ryy	2.ryy	2.ryy	2.ryy
.	.	.	.	.	16b-|</LL	.	16gg|>\LL	.	.	.	.	.	.	.	.	.	.	.	.	.	.	.	.
8r	.	.	8r	.	(16a/	.	(16ff\	.	.	.	.	.	.	.	.	.	.	.	.	.	.	.	.
.	.	.	.	.	16b-/JJ)	.	16gg\JJ)	.	.	.	.	.	.	.	.	.	.	.	.	.	.	.	.
8c\	4	.	8c\	.	16r	.	16r	.	4c\	.	2c\	.	4a\	.	4ff\	.	.	.	.	.	.	.	.
!	!	!	!	!	!LO:SIC:s=16cc|LL	!	!	!	!	!	!	!	!	!	!	!	!	!	!	!	!	!	!
.	.	.	.	.	16b-|</LL	.	16aa|>\LL	.	.	.	.	.	.	.	.	.	.	.	.	.	.	.	.
!	!	!	!	!	!LO:SIC:s=(16b-	!	!	!	!	!	!	!	!	!	!	!	!	!	!	!	!	!	!
8r	.	.	8r	.	(16a/	.	(16gg\	.	.	.	.	.	.	.	.	.	.	.	.	.	.	.	.
!	!	!	!	!	!LO:SIC:s=16aJJ)	!	!	!	!	!	!	!	!	!	!	!	!	!	!	!	!	!	!
.	.	.	.	.	16b-/JJ)	.	16ff\JJ)	.	.	.	.	.	.	.	.	.	.	.	.	.	.	.	.
8C/	3	.	8c\	.	16r	.	16r	.	4C/	.	.	.	4g\	.	4ee\	.	.	.	.	.	.	.	.
.	.	.	.	.	16b-|</LL	.	16gg|>\LL	.	.	.	.	.	.	.	.	.	.	.	.	.	.	.	.
8r	.	.	8r	.	(16a/	.	(16ff\	.	.	.	.	.	.	.	.	.	.	.	.	.	.	.	.
.	.	.	.	.	16g/JJ)	.	16ee\JJ)	.	.	.	.	.	.	.	.	.	.	.	.	.	.	.	.
!	!	!	!LO:LB:g=original	!	!	!	!LO:LB:g=original	!	!	!	!	!	!	!	!	!	!	!	!	!	!	!	!
=26	=26	=26	=26	=26	=26	=26	=26	=26	=26	=26	=26	=26	=26	=26	=26	=26	=26	=26	=26	=26	=26	=26	=26
!	!	!	!	!	!LO:MO:mod=*tremolo	!	!	!	!	!	!	!	!	!	!	!	!	!	!	!	!	!	!
*	*	*	*	*	*null	*	*	*	*	*	*	*	*	*	*	*	*	*	*	*	*	*	*
!	!	!	!LO:TX:a:i:t=Solo&colon;:mod=	!	!LO:TX:a:i:t=Solo&colon;:mod=	!	!LO:TX:a:i:t=Solo&colon;:mod=	!	!	!LO:MO:mod=-bis.	!	!LO:MO:mod=-bis.	!	!LO:MO:mod=-bis.	!	!LO:MO:mod=-bis.	!	!	!	!	!	!	!
4F\	.	.	8c\L	.	8a/L	.	2ff\	.	4F\	-bis	4c\	-bis	4a\	-bis	4ff\	-bis	2.ryy	2.ryy	2.ryy	2.ryy	2.ryy	2.ryy	2.ryy
.	.	.	8f\	.	8a/	.	.	.	.	.	.	.	.	.	.	.	.	.	.	.	.	.	.
!	!	!	!	!	!	!	!	!	!	!	!	!	!	!	!LO:MO:mod=4r	!	!	!	!	!	!	!	!
2r	.	.	8f\	.	8a/	.	.	.	4r	.	4r	.	4r	.	2r	.	.	.	.	.	.	.	.
.	.	.	8f\	.	8a/	.	.	.	.	.	.	.	.	.	.	.	.	.	.	.	.	.	.
!	!	!	!	!	!	!	!	!	!	!	!	!	!	!	!LO:MO:null:mod=4r	!	!	!	!	!	!	!	!
.	.	.	8f\	.	8a/	.	(16ff\LL	.	4r	.	4r	.	4r	.	.	.	.	.	.	.	.	.	.
.	.	.	.	.	.	.	16ee\	.	.	.	.	.	.	.	.	.	.	.	.	.	.	.	.
.	.	.	8f\J	.	8a/J	.	16ff\	.	.	.	.	.	.	.	.	.	.	.	.	.	.	.	.
.	.	.	.	.	.	.	16gg\JJ)	.	.	.	.	.	.	.	.	.	.	.	.	.	.	.	.
!	!	!	!	!	!LO:LB:g=original	!	!	!	!	!	!	!	!	!	!	!	!	!	!	!	!	!	!
=27	=27	=27	=27	=27	=27	=27	=27	=27	=27	=27	=27	=27	=27	=27	=27	=27	=27	=27	=27	=27	=27	=27	=27
*	*	*	*tremolo	*	*	*	*	*	*	*	*	*	*	*	*	*	*	*	*	*	*	*	*
0.r	.	.	8f\L	.	8a/L	.	16ff\LL	.	0.r	.	0.r	.	0.r	.	0.r	.	2.ryy	2.ryy	2.ryy	2.ryy	2.ryy	2.ryy	2.ryy
.	.	.	.	.	.	.	16ee\	.	.	.	.	.	.	.	.	.	.	.	.	.	.	.	.
.	.	.	8f\	.	8a/	.	16dd\	.	.	.	.	.	.	.	.	.	.	.	.	.	.	.	.
.	.	.	.	.	.	.	16cc\JJ	.	.	.	.	.	.	.	.	.	.	.	.	.	.	.	.
.	.	.	8f\	.	8a/	.	2cc\	.	.	.	.	.	.	.	.	.	.	.	.	.	.	.	.
.	.	.	8f\	.	8a/	.	.	.	.	.	.	.	.	.	.	.	.	.	.	.	.	.	.
.	.	.	8f\	.	8a/	.	.	.	.	.	.	.	.	.	.	.	.	.	.	.	.	.	.
.	.	.	8f\J	.	8a/J	.	.	.	.	.	.	.	.	.	.	.	.	.	.	.	.	.	.
=28	=28	=28	=28	=28	=28	=28	=28	=28	=28	=28	=28	=28	=28	=28	=28	=28	=28	=28	=28	=28	=28	=28	=28
!	!	!	!	!	!	!	!LO:SIC:s=8qb	!	!	!	!	!	!	!	!	!	!	!	!	!	!	!	!
.	.	.	.	.	.	.	8qb-/	.	.	.	.	.	.	.	.	.	.	.	.	.	.	.	.
!	!	!	!	!	!LO:MO:mod=*null:null	!	!	!	!	!	!	!	!	!	!	!	!	!	!	!	!	!	!
*	*	*	*	*	*tremolo	*	*	*	*	*	*	*	*	*	*	*	*	*	*	*	*	*	*
.	.	.	8e\L	.	8g/L	.	4cc\	.	.	.	.	.	.	.	.	.	2.ryy	2.ryy	2.ryy	2.ryy	2.ryy	2.ryy	2.ryy
.	.	.	8e\	.	8g/	.	.	.	.	.	.	.	.	.	.	.	.	.	.	.	.	.	.
.	.	.	8e\	.	8g/	.	16gg\LL	.	.	.	.	.	.	.	.	.	.	.	.	.	.	.	.
.	.	.	.	.	.	.	16ff\	.	.	.	.	.	.	.	.	.	.	.	.	.	.	.	.
.	.	.	8e\	.	8g/	.	16ee\	.	.	.	.	.	.	.	.	.	.	.	.	.	.	.	.
.	.	.	.	.	.	.	16dd\JJ	.	.	.	.	.	.	.	.	.	.	.	.	.	.	.	.
.	.	.	8e\	.	8g/	.	16cc\LL	.	.	.	.	.	.	.	.	.	.	.	.	.	.	.	.
.	.	.	.	.	.	.	16dd\	.	.	.	.	.	.	.	.	.	.	.	.	.	.	.	.
.	.	.	8e\J	.	8g/J	.	16cc\	.	.	.	.	.	.	.	.	.	.	.	.	.	.	.	.
.	.	.	.	.	.	.	16b-\JJ	.	.	.	.	.	.	.	.	.	.	.	.	.	.	.	.
*	*	*	*Xtremolo	*	*Xtremolo	*	*	*	*	*	*	*	*	*	*	*	*	*	*	*	*	*	*
=29	=29	=29	=29	=29	=29	=29	=29	=29	=29	=29	=29	=29	=29	=29	=29	=29	=29	=29	=29	=29	=29	=29	=29
.	.	.	8f\L	.	8a/L	.	8b-/L	.	.	.	.	.	.	.	.	.	2.ryy	2.ryy	2.ryy	2.ryy	2.ryy	2.ryy	2.ryy
.	.	.	8f\	.	8a/	.	8a/J	.	.	.	.	.	.	.	.	.	.	.	.	.	.	.	.
!	!	!	!LO:TX:a:t=P:problem=mixed beam	!	!	!	!	!	!	!	!	!	!	!	!	!	!	!	!	!	!	!	!
.	.	.	8F/	.	8c/	.	2a/	.	.	.	.	.	.	.	.	.	.	.	.	.	.	.	.
.	.	.	8F/	.	8c/	.	.	.	.	.	.	.	.	.	.	.	.	.	.	.	.	.	.
.	.	.	8F/	.	8c/	.	.	.	.	.	.	.	.	.	.	.	.	.	.	.	.	.	.
.	.	.	8F/J	.	8c/J	.	.	.	.	.	.	.	.	.	.	.	.	.	.	.	.	.	.
=30	=30	=30	=30	=30	=30	=30	=30	=30	=30	=30	=30	=30	=30	=30	=30	=30	=30	=30	=30	=30	=30	=30	=30
.	.	.	8B-/L	.	8f/L	.	2dd\	.	.	.	.	.	.	.	.	.	2.ryy	2.ryy	2.ryy	2.ryy	2.ryy	2.ryy	2.ryy
.	.	.	8B-/	.	8f/	.	.	.	.	.	.	.	.	.	.	.	.	.	.	.	.	.	.
.	.	.	8B-/	.	8f/	.	.	.	.	.	.	.	.	.	.	.	.	.	.	.	.	.	.
.	.	.	8B-/	.	8f/	.	.	.	.	.	.	.	.	.	.	.	.	.	.	.	.	.	.
.	.	.	.	.	.	.	8ffq/	.	.	.	.	.	.	.	.	.	.	.	.	.	.	.	.
.	.	.	8G/	.	8b-/	.	8ee\L	.	.	.	.	.	.	.	.	.	.	.	.	.	.	.	.
.	.	.	8G/J	.	8b-/J	.	16dd\L	.	.	.	.	.	.	.	.	.	.	.	.	.	.	.	.
.	.	.	.	.	.	.	16ee\JJ	.	.	.	.	.	.	.	.	.	.	.	.	.	.	.	.
=31	=31	=31	=31	=31	=31	=31	=31	=31	=31	=31	=31	=31	=31	=31	=31	=31	=31	=31	=31	=31	=31	=31	=31
*	*	*	*	*	*tremolo	*	*	*	*	*	*	*	*	*	*	*	*	*	*	*	*	*	*
2.r	.	.	8F/L	.	8a/L	.	4ff\	.	0.r	.	1.r	.	0.r	.	0.r	.	2.ryy	2.ryy	2.ryy	2.ryy	2.ryy	2.ryy	2.ryy
.	.	.	8F/	.	8a/	.	.	.	.	.	.	.	.	.	.	.	.	.	.	.	.	.	.
!	!	!	!LO:TX:a:t=P:problem=mixed beam	!	!	!	!	!	!	!	!	!	!	!	!	!	!	!	!	!	!	!	!
.	.	.	8f\	.	8a/	.	(16ff\LL	.	.	.	.	.	.	.	.	.	.	.	.	.	.	.	.
.	.	.	.	.	.	.	16cc\	.	.	.	.	.	.	.	.	.	.	.	.	.	.	.	.
.	.	.	8f\	.	8a/	.	16aa\	.	.	.	.	.	.	.	.	.	.	.	.	.	.	.	.
.	.	.	.	.	.	.	16gg\JJ)	.	.	.	.	.	.	.	.	.	.	.	.	.	.	.	.
.	.	.	8f\	.	8a/	.	(16ff\LL	.	.	.	.	.	.	.	.	.	.	.	.	.	.	.	.
.	.	.	.	.	.	.	16ee\	.	.	.	.	.	.	.	.	.	.	.	.	.	.	.	.
.	.	.	8f\J	.	8a/J	.	16dd\	.	.	.	.	.	.	.	.	.	.	.	.	.	.	.	.
.	.	.	.	.	.	.	16cc\JJ)	.	.	.	.	.	.	.	.	.	.	.	.	.	.	.	.
*	*	*	*	*	*Xtremolo	*	*	*	*	*	*	*	*	*	*	*	*	*	*	*	*	*	*
!LO:LB:g=original	!	!	!	!	!	!	!	!	!	!	!	!	!	!	!	!	!	!	!	!	!	!	!
=32	=32	=32	=32	=32	=32	=32	=32	=32	=32	=32	=32	=32	=32	=32	=32	=32	=32	=32	=32	=32	=32	=32	=32
!	!	!LO:DY:a:t=p&colon;:mod= 	!	!	!	!	!	!	!	!	!	!	!	!	!	!	!	!	!	!	!	!	!
8r	.	p	8B-/L	.	8g/L	.	(16cc\LL	.	.	.	.	.	.	.	.	.	2.ryy	2.ryy	2.ryy	2.ryy	2.ryy	2.ryy	2.ryy
.	.	.	.	.	.	.	16b-\	.	.	.	.	.	.	.	.	.	.	.	.	.	.	.	.
8B-\	6	.	8d/J	.	16b-/L	.	16dd\	.	.	.	.	.	.	.	.	.	.	.	.	.	.	.	.
.	.	.	.	.	16g/JJ	.	16b-\JJ)	.	.	.	.	.	.	.	.	.	.	.	.	.	.	.	.
!	!	!	!	!	!	!	!LO:LB:g=original	!	!	!	!	!	!	!	!	!	!	!	!	!	!	!	!
4c\	4	.	4c/	.	4f/	.	4a/	.	.	.	.	.	.	.	.	.	.	.	.	.	.	.	.
4C/	3	.	4c/	.	4e/	.	4g/	.	.	.	.	.	.	.	.	.	.	.	.	.	.	.	.
=33	=33	=33	=33	=33	=33	=33	=33	=33	=33	=33	=33	=33	=33	=33	=33	=33	=33	=33	=33	=33	=33	=33	=33
4F\	.	.	4c/	.	8f/L	.	8a/L	.	.	.	4r	.	.	.	.	.	2.ryy	2.ryy	2.ryy	2.ryy	2.ryy	2.ryy	2.ryy
.	.	.	.	.	8a/J	.	8cc/J	.	.	.	.	.	.	.	.	.	.	.	.	.	.	.	.
4FF/	.	.	4c/	.	4f/	.	4a/	.	.	.	4r	.	.	.	.	.	.	.	.	.	.	.	.
4r	.	.	4r	.	4r	.	4r	.	.	.	8r	.	.	.	.	.	.	.	.	.	.	.	.
!	!	!	!	!	!	!	!	!	!	!	!LO:MO:mod=!LO&colon;TX&colon;a&colon;i&colon;t=Solo	!	!	!	!	!	!	!	!	!	!	!	!
!	!	!	!	!	!	!	!	!	!	!	!LO:TX:a:i:t=Solo&colon;	!	!	!	!	!	!	!	!	!	!	!	!
.	.	.	.	.	.	.	.	.	.	.	8F/	Qui	.	.	.	.	.	.	.	.	.	.	.
!	!	!	!LO:LB:g=original	!	!	!	!	!	!	!	!	!	!	!	!	!	!	!	!	!	!	!	!
=34	=34	=34	=34	=34	=34	=34	=34	=34	=34	=34	=34	=34	=34	=34	=34	=34	=34	=34	=34	=34	=34	=34	=34
!	!	!	!	!LO:DY:a:t=p&colon;:mod= 	!	!LO:DY:a:t=p&colon;:mod= 	!	!LO:DY:a:i:t=pio&colon;:mod= 	!	!	!	!	!	!	!	!	!	!	!	!	!	!	!
8r	.	.	8r	p	8r	p	8r	p	.	.	4c\	tol-	.	.	.	.	2.ryy	2.ryy	2.ryy	2.ryy	2.ryy	2.ryy	2.ryy
!	!	!LO:DY:t= :mod=%s	!	!LO:DY:t= :mod=%s	!	!LO:DY:t= :mod=%s	!	!LO:DY:t= :mod=%s	!	!	!	!	!	!	!	!	!	!	!	!	!	!	!
8F\L	5_ 3	p	8f\L	p	8a/L	p	8a/L	p	.	.	.	.	.	.	.	.	.	.	.	.	.	.	.
8E\	_ 3	.	8e\	.	8g/	.	8g/	.	.	.	4c\	-lis	.	.	.	.	.	.	.	.	.	.	.
8F\	_ 3	.	8f\	.	8a/	.	8a/	.	.	.	.	.	.	.	.	.	.	.	.	.	.	.	.
8G\	_ 3	.	8g\	.	8b-/	.	8b-/	.	.	.	4c\	pec-	.	.	.	.	.	.	.	.	.	.	.
8E\J	_ 3	.	8e\J	.	8g/J	.	8g/J	.	.	.	.	.	.	.	.	.	.	.	.	.	.	.	.
!	!	!	!	!	!LO:LB:g=original	!	!	!	!	!	!	!	!	!	!	!	!	!	!	!	!	!	!
=35	=35	=35	=35	=35	=35	=35	=35	=35	=35	=35	=35	=35	=35	=35	=35	=35	=35	=35	=35	=35	=35	=35	=35
4F\	x	.	4c\	.	(8g/L	.	(8g/L	.	0.r	.	8.c\L	-ca-	0.r	.	0.r	.	2.ryy	2.ryy	2.ryy	2.ryy	2.ryy	2.ryy	2.ryy
.	.	.	.	.	8f/J)	.	8a/J)	.	.	.	.	.	.	.	.	.	.	.	.	.	.	.	.
.	.	.	.	.	.	.	.	.	.	.	16A\Jk	.	.	.	.	.	.	.	.	.	.	.	.
4FF/	.	.	4c\	.	8r	.	8r	.	.	.	4F/	-ta	.	.	.	.	.	.	.	.	.	.	.
.	.	.	.	.	8a|</L	.	(8ff|>\L	.	.	.	.	.	.	.	.	.	.	.	.	.	.	.	.
4r	.	.	4r	.	8a|</	.	8ff|>\	.	.	.	8r	.	.	.	.	.	.	.	.	.	.	.	.
*	*	*	*	*	*	*	*	*	*	*	*	*ij	*	*	*	*	*	*	*	*	*	*	*
.	.	.	.	.	8a|</J	.	8ff|>\J)	.	.	.	8F/	pec-	.	.	.	.	.	.	.	.	.	.	.
=36	=36	=36	=36	=36	=36	=36	=36	=36	=36	=36	=36	=36	=36	=36	=36	=36	=36	=36	=36	=36	=36	=36	=36
8r	.	.	8r	.	2a/	.	2ff\	.	.	.	2f\	-ca-	.	.	.	.	2.ryy	2.ryy	2.ryy	2.ryy	2.ryy	2.ryy	2.ryy
8F/L	3_	.	4c\	.	.	.	.	.	.	.	.	.	.	.	.	.	.	.	.	.	.	.	.
8E/	.	.	.	.	.	.	.	.	.	.	.	.	.	.	.	.	.	.	.	.	.	.	.
8D/	.	.	4d\	.	.	.	.	.	.	.	.	.	.	.	.	.	.	.	.	.	.	.	.
8C/	.	.	.	.	(16b-/LL	.	(16gg\LL	.	.	.	4f\	-ta	.	.	.	.	.	.	.	.	.	.	.
*	*	*	*	*	*	*	*	*	*	*	*	*Xij	*	*	*	*	*	*	*	*	*	*	*
.	.	.	.	.	16a/	.	16ff\	.	.	.	.	.	.	.	.	.	.	.	.	.	.	.	.
8BBn/J	x	.	8d\	.	16g/	.	16ee\	.	.	.	.	.	.	.	.	.	.	.	.	.	.	.	.
.	.	.	.	.	16a/JJ)	.	16ff\JJ)	.	.	.	.	.	.	.	.	.	.	.	.	.	.	.	.
!	!	!	!	!	!	!	!	!	!	!	!LO:LB:g=original	!	!	!	!	!	!	!	!	!	!	!	!
=37	=37	=37	=37	=37	=37	=37	=37	=37	=37	=37	=37	=37	=37	=37	=37	=37	=37	=37	=37	=37	=37	=37	=37
4C/	3_	.	4c\	.	(8a/L	.	(8ff\L	.	.	.	8f\L	mun-	.	.	.	.	2.ryy	2.ryy	2.ryy	2.ryy	2.ryy	2.ryy	2.ryy
.	.	.	.	.	8g/J)	.	8ee\J)	.	.	.	8e\J	.	.	.	.	.	.	.	.	.	.	.	.
4C/	x	.	4c\	.	8r	.	8r	.	.	.	4e\	-di	.	.	.	.	.	.	.	.	.	.	.
.	.	.	.	.	(8g|</L	.	(8ee|>\L	.	.	.	.	.	.	.	.	.	.	.	.	.	.	.	.
4r	.	.	4r	.	8g|</	.	8ee|>\	.	.	.	8r	.	.	.	.	.	.	.	.	.	.	.	.
.	.	.	.	.	8g|</J)	.	8ee|>\J)	.	.	.	8e\	pec-	.	.	.	.	.	.	.	.	.	.	.
=38	=38	=38	=38	=38	=38	=38	=38	=38	=38	=38	=38	=38	=38	=38	=38	=38	=38	=38	=38	=38	=38	=38	=38
8r	.	.	8r	.	2a/	.	2ff\	.	.	.	2f\	-ca-	.	.	.	.	2.ryy	2.ryy	2.ryy	2.ryy	2.ryy	2.ryy	2.ryy
8F/L	3_	.	4c\	.	.	.	.	.	.	.	.	.	.	.	.	.	.	.	.	.	.	.	.
8E/	.	.	.	.	.	.	.	.	.	.	.	.	.	.	.	.	.	.	.	.	.	.	.
8D/	.	.	4d\	.	.	.	.	.	.	.	.	.	.	.	.	.	.	.	.	.	.	.	.
8C/	.	.	.	.	(16b-/LL	.	(16gg\LL	.	.	.	4f\	-ta	.	.	.	.	.	.	.	.	.	.	.
.	.	.	.	.	16a/	.	16ff\	.	.	.	.	.	.	.	.	.	.	.	.	.	.	.	.
8BBn/J	x	.	8d\	.	16g/	.	16ee\	.	.	.	.	.	.	.	.	.	.	.	.	.	.	.	.
.	.	.	.	.	16a/JJ)	.	16ff\JJ)	.	.	.	.	.	.	.	.	.	.	.	.	.	.	.	.
!	!	!	!	!	!	!	!LO:LB:g=original	!	!	!	!	!	!	!	!	!	!	!	!	!	!	!	!
=39	=39	=39	=39	=39	=39	=39	=39	=39	=39	=39	=39	=39	=39	=39	=39	=39	=39	=39	=39	=39	=39	=39	=39
4C/	3	.	4c\	.	8a/L	.	8ff\L	.	2.r;>	.	8f\L	mun-	2.r;>	.	2.r;>	.	2.ryy	2.ryy	2.ryy	2.ryy	2.ryy	2.ryy	2.ryy
.	.	.	.	.	8g/J	.	8ee\J	.	.	.	8e\J	.	.	.	.	.	.	.	.	.	.	.	.
4C;>/	.	.	4c;>\	.	4g;>/	.	4ee;>\	.	.	.	4e;>\	-di	.	.	.	.	.	.	.	.	.	.	.
4r	.	.	4r	.	4r	.	4r	.	.	.	4r	.	.	.	.	.	.	.	.	.	.	.	.
!LO:LB:g=original	!	!	!	!	!	!	!	!	!	!	!	!	!	!	!	!	!	!	!	!	!	!	!
=40	=40	=40	=40	=40	=40	=40	=40	=40	=40	=40	=40	=40	=40	=40	=40	=40	=40	=40	=40	=40	=40	=40	=40
!!LO:TX:a:t= :mod=Tutti
!	!	!LO:DY:t= :mod=%s	!	!	!	!	!	!	!	!	!	!	!	!	!	!	!	!	!	!	!	!	!
!	!	!LO:MO:mod=!LO&colon;DY&colon;ed=brack	!	!	!	!	!	!	!	!	!	!	!	!	!	!	!	!	!	!	!	!	!
!LO:TX:a:t=tutti:mod=	!	!null	!	!LO:DY:a:t=f&colon;:mod=%s	!	!LO:DY:a:t=for&colon;:mod=%s	!	!LO:DY:a:t=for&colon;:mod=%s	!	!LO:MO:mod=sus-	!	!LO:MO:mod=sus-	!	!LO:MO:mod=sus-	!	!LO:MO:mod=sus-	!	!	!	!	!	!	!
8.E\L	6_	f	8.c\L	f	4e\ 4cc	f	4e\ 4cc	f	8.E\	Suſ-	8.c\	Suſ-	8.b-\	Suſ-	8.gg\	Suſ-	2.ryy	2.ryy	2.ryy	2.ryy	2.ryy	2.ryy	2.ryy
16F\Jk	.	.	16c\Jk	.	.	.	.	.	16F\	-ci-	16c\	-ci-	16a\	-ci-	16ff\	-ci-	.	.	.	.	.	.	.
4G\	x	.	4c\	.	8r	.	8r	.	4G\	-pe	4c\	-pe	4b-\	-pe	4ee\	-pe	.	.	.	.	.	.	.
.	.	.	.	.	(8g|</L	.	(8ee|>\L	.	.	.	.	.	.	.	.	.	.	.	.	.	.	.	.
4r	.	.	4r	.	8g|</	.	8ee|>\	.	4r	.	4r	.	4r	.	4r	.	.	.	.	.	.	.	.
.	.	.	.	.	8g|</J)	.	8ee|>\J)	.	.	.	.	.	.	.	.	.	.	.	.	.	.	.	.
=41	=41	=41	=41	=41	=41	=41	=41	=41	=41	=41	=41	=41	=41	=41	=41	=41	=41	=41	=41	=41	=41	=41	=41
2.r	.	.	2.r	.	(32g/KLL	.	(32ee\KLL	.	2.r	.	2.r	.	2.r	.	2.r	.	2.ryy	2.ryy	2.ryy	2.ryy	2.ryy	2.ryy	2.ryy
.	.	.	.	.	16.f/)	.	16.dd\)	.	.	.	.	.	.	.	.	.	.	.	.	.	.	.	.
.	.	.	.	.	(32f/K	.	(32dd\K	.	.	.	.	.	.	.	.	.	.	.	.	.	.	.	.
.	.	.	.	.	16.g/JJ)	.	16.ee\JJ)	.	.	.	.	.	.	.	.	.	.	.	.	.	.	.	.
.	.	.	.	.	(32g/KLL	.	(32ee\KLL	.	.	.	.	.	.	.	.	.	.	.	.	.	.	.	.
.	.	.	.	.	16.a/)	.	16.ff\)	.	.	.	.	.	.	.	.	.	.	.	.	.	.	.	.
.	.	.	.	.	(32a/K	.	(32ff\K	.	.	.	.	.	.	.	.	.	.	.	.	.	.	.	.
.	.	.	.	.	16.b-/JJ)	.	16.gg\JJ)	.	.	.	.	.	.	.	.	.	.	.	.	.	.	.	.
!	!	!	!	!	!LO:LB:g=original	!	!	!	!	!	!	!	!	!	!	!	!	!	!	!	!	!	!
.	.	.	.	.	(32b-/KLL	.	(32gg\KLL	.	.	.	.	.	.	.	.	.	.	.	.	.	.	.	.
.	.	.	.	.	16.a/)	.	16.ff\)	.	.	.	.	.	.	.	.	.	.	.	.	.	.	.	.
.	.	.	.	.	(32a/K	.	(32ff\K	.	.	.	.	.	.	.	.	.	.	.	.	.	.	.	.
.	.	.	.	.	16.g/JJ)	.	16.ee\JJ)	.	.	.	.	.	.	.	.	.	.	.	.	.	.	.	.
!	!	!	!LO:LB:g=original	!	!	!	!	!	!	!	!	!	!	!	!	!	!	!	!	!	!	!	!
=42	=42	=42	=42	=42	=42	=42	=42	=42	=42	=42	=42	=42	=42	=42	=42	=42	=42	=42	=42	=42	=42	=42	=42
*	*	*	*	*	*	*	*	*	*	*ij	*	*ij	*	*ij	*	*ij	*	*	*	*	*	*	*
!	!	!	!	!	!	!	!	!	!	!LO:MO:mod=sus-	!	!LO:MO:mod=sus-	!	!LO:MO:mod=sus-	!	!LO:MO:mod=sus-	!	!	!	!	!	!	!
8.F\L	.	.	8.c\L	.	4a|</	.	4a\ 4ff	.	8.F\	Suſ-	8.c\	Suſ-	8.a\	Suſ-	8.ff\	Suſ-	2.ryy	2.ryy	2.ryy	2.ryy	2.ryy	2.ryy	2.ryy
16G\Jk	6	.	16c\Jk	.	.	.	.	.	16G\	-ci-	16c\	-ci-	16b-\	-ci-	16ee\	-ci-	.	.	.	.	.	.	.
4A\	6	.	4c\	.	8r	.	8r	.	4A\	-pe	4c\	-pe	4a\	-pe	4ff\	-pe	.	.	.	.	.	.	.
*	*	*	*	*	*	*	*	*	*	*	*	*	*	*Xij	*	*Xij	*	*	*	*	*	*	*
.	.	.	.	.	8a|</L	.	(8ff|>\L	.	.	.	.	.	.	.	.	.	.	.	.	.	.	.	.
4r	.	.	4r	.	8a|</	.	8ff|>\	.	4r	.	4r	.	4r	.	4r	.	.	.	.	.	.	.	.
.	.	.	.	.	8a|</J	.	8ff|>\J)	.	.	.	.	.	.	.	.	.	.	.	.	.	.	.	.
=43	=43	=43	=43	=43	=43	=43	=43	=43	=43	=43	=43	=43	=43	=43	=43	=43	=43	=43	=43	=43	=43	=43	=43
2.r	.	.	2.r	.	(32a/KLL	.	(32ff\KLL	.	2.r	.	2.r	.	2.r	.	2.r	.	2.ryy	2.ryy	2.ryy	2.ryy	2.ryy	2.ryy	2.ryy
.	.	.	.	.	16.g/)	.	16.ee\)	.	.	.	.	.	.	.	.	.	.	.	.	.	.	.	.
.	.	.	.	.	(32g/K	.	(32ee\K	.	.	.	.	.	.	.	.	.	.	.	.	.	.	.	.
.	.	.	.	.	16.a/JJ)	.	16.ff\JJ)	.	.	.	.	.	.	.	.	.	.	.	.	.	.	.	.
.	.	.	.	.	(32a/KLL	.	(32ff\KLL	.	.	.	.	.	.	.	.	.	.	.	.	.	.	.	.
.	.	.	.	.	16.b-/)	.	16.gg\)	.	.	.	.	.	.	.	.	.	.	.	.	.	.	.	.
.	.	.	.	.	(32b-/K	.	(32gg\K	.	.	.	.	.	.	.	.	.	.	.	.	.	.	.	.
.	.	.	.	.	16.cc/JJ)	.	16.aa\JJ)	.	.	.	.	.	.	.	.	.	.	.	.	.	.	.	.
.	.	.	.	.	(32cc/KLL	.	(32aa\KLL	.	.	.	.	.	.	.	.	.	.	.	.	.	.	.	.
.	.	.	.	.	16.b-/)	.	16.gg\)	.	.	.	.	.	.	.	.	.	.	.	.	.	.	.	.
.	.	.	.	.	(32b-/K	.	(32gg\K	.	.	.	.	.	.	.	.	.	.	.	.	.	.	.	.
.	.	.	.	.	16.a/JJ)	.	16.ff\JJ)	.	.	.	.	.	.	.	.	.	.	.	.	.	.	.	.
!	!	!	!	!	!	!	!LO:LB:g=original	!	!	!	!	!	!	!	!LO:LB:g=original	!	!	!	!	!	!	!	!
=44	=44	=44	=44	=44	=44	=44	=44	=44	=44	=44	=44	=44	=44	=44	=44	=44	=44	=44	=44	=44	=44	=44	=44
!	!	!	!	!	!	!	!	!	!	!LO:MO:mod=sus-	!	!LO:MO:mod=sus-LO:MO:mod=sus-	!	!LO:MO:mod=sus-	!	!LO:MO:mod=sus-	!	!	!	!	!	!	!
8.G\L	6 4	.	8.c\L	.	(8.b-\L	.	(8.ee\L	.	8.G\	Suſ-	8.c\	Suſ-	8.b-\	Suſ-	8.ee\	Suſ-	2.ryy	2.ryy	2.ryy	2.ryy	2.ryy	2.ryy	2.ryy
16F\Jk	_ _	.	16c\Jk	.	16a\Jk)	.	16ff\Jk)	.	16F\	-ci-	16c\	-ci-	16a\	-ci-	16ff\	-ci-	.	.	.	.	.	.	.
!	!	!	!	!	!LO:TX:b:i:t=Verte Cito:mod=	!	!	!	!	!	!	!	!LO:LB:g=original	!	!	!	!	!	!	!	!	!	!
4E\	x	.	4c\	.	4b-|>\	.	4gg|>\	.	4E\	-pe	4c\	-pe	4b-\	-pe	4gg\	-pe	.	.	.	.	.	.	.
*	*	*	*	*	*	*	*	*	*	*Xij	*	*Xij	*	*	*	*	*	*	*	*	*	*	*
!	!	!	!	!	!	!	!LO:TX:b:i:t=Verte Cito:mod=	!	!	!	!	!	!	!	!	!	!	!	!	!	!	!	!
4r	.	.	4r	.	4r	.	4r	.	4r	.	4r	.	4r	.	4r	.	.	.	.	.	.	.	.
!	!	!	!	!	!LO:PB:g=original	!	!LO:PB:g=original	!	!	!	!LO:LB:g=original	!	!	!	!	!	!	!	!	!	!	!	!
=45	=45	=45	=45	=45	=45	=45	=45	=45	=45	=45	=45	=45	=45	=45	=45	=45	=45	=45	=45	=45	=45	=45	=45
!	!	!	!	!	!	!	!	!	!	!	!	!LO:MO:mod=de-	!	!	!	!	!	!	!	!	!	!	!
8C/	.	.	8e\	.	16r	.	16r	.	(4C/	de-	2c\	De-	2b-\	de-	2gg\	de-	2.ryy	2.ryy	2.ryy	2.ryy	2.ryy	2.ryy	2.ryy
.	.	.	.	.	16g|</LL	.	16b-|>\LL	.	.	.	.	.	.	.	.	.	.	.	.	.	.	.	.
8r	.	.	8r	.	(16a/	.	(16cc\	.	.	.	.	.	.	.	.	.	.	.	.	.	.	.	.
.	.	.	.	.	16g/JJ)	.	16b-\JJ)	.	.	.	.	.	.	.	.	.	.	.	.	.	.	.	.
8E\	6 5	.	8c\	.	16r	.	16r	.	4E\)	.	.	.	.	.	.	.	.	.	.	.	.	.	.
.	.	.	.	.	16g|</LL	.	16b-|>\LL	.	.	.	.	.	.	.	.	.	.	.	.	.	.	.	.
8r	.	.	8r	.	(16a/	.	(16cc\	.	.	.	.	.	.	.	.	.	.	.	.	.	.	.	.
.	.	.	.	.	16g/JJ)	.	16b-\JJ)	.	.	.	.	.	.	.	.	.	.	.	.	.	.	.	.
8F\	.	.	8c\	.	16r	.	16r	.	4F\	-pre-	4c\	-pre-	4a\	-pre-	4ff\	-pre-	.	.	.	.	.	.	.
.	.	.	.	.	16f|</LL	.	16a|>/LL	.	.	.	.	.	.	.	.	.	.	.	.	.	.	.	.
8r	.	.	8r	.	(16e/	.	(16g/	.	.	.	.	.	.	.	.	.	.	.	.	.	.	.	.
.	.	.	.	.	16f/JJ)	.	16a/JJ)	.	.	.	.	.	.	.	.	.	.	.	.	.	.	.	.
!	!	!	!	!	!	!	!	!	!LO:LB:g=original	!	!	!	!	!	!	!	!	!	!	!	!	!	!
=46	=46	=46	=46	=46	=46	=46	=46	=46	=46	=46	=46	=46	=46	=46	=46	=46	=46	=46	=46	=46	=46	=46	=46
8C/	.	.	8e\	.	16r	.	16r	.	(4C/	-ca-	2c\	-ca-	2b-\	-ca-	2gg\	-ca-	2.ryy	2.ryy	2.ryy	2.ryy	2.ryy	2.ryy	2.ryy
.	.	.	.	.	16g|</LL	.	16b-|>\LL	.	.	.	.	.	.	.	.	.	.	.	.	.	.	.	.
8r	.	.	8r	.	(16a/	.	(16cc\	.	.	.	.	.	.	.	.	.	.	.	.	.	.	.	.
.	.	.	.	.	16g/JJ)	.	16b-\JJ)	.	.	.	.	.	.	.	.	.	.	.	.	.	.	.	.
8E\	6 5	.	8c\	.	16r	.	16r	.	4E\)	.	.	.	.	.	.	.	.	.	.	.	.	.	.
.	.	.	.	.	16g|</LL	.	16b-|>\LL	.	.	.	.	.	.	.	.	.	.	.	.	.	.	.	.
8r	.	.	8r	.	(16a/	.	(16cc\	.	.	.	.	.	.	.	.	.	.	.	.	.	.	.	.
.	.	.	.	.	16g/JJ)	.	16b-\JJ)	.	.	.	.	.	.	.	.	.	.	.	.	.	.	.	.
8F\	.	.	8c\	.	16r	.	16r	.	4F\	-ti-	4c\	-ti-	4a\	-ti-	4ff\	-ti-	.	.	.	.	.	.	.
.	.	.	.	.	16f|</LL	.	16a|>/LL	.	.	.	.	.	.	.	.	.	.	.	.	.	.	.	.
8r	.	.	8r	.	(16e/	.	(16g/	.	.	.	.	.	.	.	.	.	.	.	.	.	.	.	.
.	.	.	.	.	16f/JJ)	.	16a/JJ)	.	.	.	.	.	.	.	.	.	.	.	.	.	.	.	.
=47	=47	=47	=47	=47	=47	=47	=47	=47	=47	=47	=47	=47	=47	=47	=47	=47	=47	=47	=47	=47	=47	=47	=47
8B-\	.	.	8d\	.	16r	.	16r	.	(4B-\	-o-	(4d\	-o-	2b-\	-o-	(4dd\	-o-	2.ryy	2.ryy	2.ryy	2.ryy	2.ryy	2.ryy	2.ryy
.	.	.	.	.	16f|</LL	.	16dd|>\LL	.	.	.	.	.	.	.	.	.	.	.	.	.	.	.	.
8r	.	.	8r	.	(16e/	.	(16cc\	.	.	.	.	.	.	.	.	.	.	.	.	.	.	.	.
.	.	.	.	.	16f/JJ)	.	16dd\JJ)	.	.	.	.	.	.	.	.	.	.	.	.	.	.	.	.
8G\	6	.	8c\	.	16r	.	16r	.	4G\)	.	4c\)	.	.	.	4ee\)	.	.	.	.	.	.	.	.
.	.	.	.	.	16b-|</LL	.	16ee|>\LL	.	.	.	.	.	.	.	.	.	.	.	.	.	.	.	.
8r	.	.	8r	.	(16a/	.	(16dd\	.	.	.	.	.	.	.	.	.	.	.	.	.	.	.	.
.	.	.	.	.	16b-/JJ)	.	16ee\JJ)	.	.	.	.	.	.	.	.	.	.	.	.	.	.	.	.
!LO:LB:g=original	!	!	!	!	!	!	!	!	!	!	!	!	!	!	!	!	!	!	!	!	!	!	!
8F\	.	.	8c\	.	16r	.	16r	.	4F\	-nem	4c\	-nem	4a\	-nem	4ff\	-nem	.	.	.	.	.	.	.
.	.	.	.	.	16a|</LL	.	16ff|>\LL	.	.	.	.	.	.	.	.	.	.	.	.	.	.	.	.
8r	.	.	8r	.	(16g/	.	(16ee\	.	.	.	.	.	.	.	.	.	.	.	.	.	.	.	.
.	.	.	.	.	16a/JJ)	.	16ff\JJ)	.	.	.	.	.	.	.	.	.	.	.	.	.	.	.	.
=48	=48	=48	=48	=48	=48	=48	=48	=48	=48	=48	=48	=48	=48	=48	=48	=48	=48	=48	=48	=48	=48	=48	=48
8B-\	6	.	8d\	.	16r	.	16r	.	4B-\	noſ-	4d\	noſ-	4b-\	noſ-	4gg\	noſ-	2.ryy	2.ryy	2.ryy	2.ryy	2.ryy	2.ryy	2.ryy
.	.	.	.	.	16b-|</LL	.	16gg|>\LL	.	.	.	.	.	.	.	.	.	.	.	.	.	.	.	.
8r	.	.	8r	.	(16a/	.	(16ff\	.	.	.	.	.	.	.	.	.	.	.	.	.	.	.	.
.	.	.	.	.	16b-/JJ)	.	16gg\JJ)	.	.	.	.	.	.	.	.	.	.	.	.	.	.	.	.
!	!	!	!LO:LB:g=original	!	!	!	!	!	!	!	!	!	!	!	!	!	!	!	!	!	!	!	!
8c\	4	.	8c\	.	16r	.	16r	.	4c\	.	2c\	.	4a\	.	4ff\	.	.	.	.	.	.	.	.
.	.	.	.	.	16cc|</LL	.	16aa|>\LL	.	.	.	.	.	.	.	.	.	.	.	.	.	.	.	.
8r	.	.	8r	.	(16b-/	.	(16gg\	.	.	.	.	.	.	.	.	.	.	.	.	.	.	.	.
.	.	.	.	.	16a/JJ)	.	16ff\JJ)	.	.	.	.	.	.	.	.	.	.	.	.	.	.	.	.
!	!	!	!	!	!LO:LB:g=original	!	!LO:LB:g=original	!	!	!	!	!	!	!	!	!	!	!	!	!	!	!	!
8C/	3	.	8c\	.	16r	.	16r	.	4C/	.	.	.	4g\	.	4ee\	.	.	.	.	.	.	.	.
.	.	.	.	.	16b-|</LL	.	16gg|>\LL	.	.	.	.	.	.	.	.	.	.	.	.	.	.	.	.
8r	.	.	8r	.	(16a/	.	(16ff\	.	.	.	.	.	.	.	.	.	.	.	.	.	.	.	.
.	.	.	.	.	16g/JJ)	.	16ee\JJ)	.	.	.	.	.	.	.	.	.	.	.	.	.	.	.	.
=49	=49	=49	=49	=49	=49	=49	=49	=49	=49	=49	=49	=49	=49	=49	=49	=49	=49	=49	=49	=49	=49	=49	=49
!	!	!	!	!	!LO:MO:mod=*tremolo	!	!	!	!	!	!	!	!	!	!	!	!	!	!	!	!	!	!
*	*	*	*	*	*null	*	*	*	*	*	*	*	*	*	*	*	*	*	*	*	*	*	*
!	!	!	!LO:TX:a:i:t=Solo:mod=	!	!LO:TX:a:i:t=Solo&colon;:mod=	!	!LO:TX:a:i:t=Solo&colon;:mod=	!	!	!LO:MO:mod=-tram.	!	!LO:MO:mod=-tram.	!	!LO:MO:mod=-tram.	!	!LO:MO:mod=-tram.	!	!	!	!	!	!	!
4F\	.	.	8c\L	.	8a/L	.	2cc\	.	4F\	-tram	4c\	-tram	4a\	-tram	4ff\	-tram	2.ryy	2.ryy	2.ryy	2.ryy	2.ryy	2.ryy	2.ryy
.	.	.	8f\	.	8a/	.	.	.	.	.	.	.	.	.	.	.	.	.	.	.	.	.	.
4r	.	.	8f\	.	8a/	.	.	.	4r	.	4r	.	4r	.	4r	.	.	.	.	.	.	.	.
.	.	.	8f\	.	8a/	.	.	.	.	.	.	.	.	.	.	.	.	.	.	.	.	.	.
4r	.	.	8f\	.	8a/	.	4ff\	.	4r	.	4r	.	4r	.	4r	.	.	.	.	.	.	.	.
.	.	.	8f\J	.	8a/J	.	.	.	.	.	.	.	.	.	.	.	.	.	.	.	.	.	.
=50	=50	=50	=50	=50	=50	=50	=50	=50	=50	=50	=50	=50	=50	=50	=50	=50	=50	=50	=50	=50	=50	=50	=50
!	!	!	!	!	!LO:MO:mod=*null:null	!	!	!	!	!	!	!	!	!	!	!	!	!	!	!	!	!	!
*	*	*	*tremolo	*	*tremolo	*	*	*	*	*	*	*	*	*	*	*	*	*	*	*	*	*	*
!LO:TX:a:i:t=Solo z:mod=	!	!	!	!	!	!	!	!	!	!	!	!	!	!	!	!	!	!	!	!	!	!	!
0.r	.	.	8f\L	.	8b-/L	.	(16ee\LL	.	0.r	.	0.r	.	0.r	.	0.r	.	2.ryy	2.ryy	2.ryy	2.ryy	2.ryy	2.ryy	2.ryy
.	.	.	.	.	.	.	16dd\	.	.	.	.	.	.	.	.	.	.	.	.	.	.	.	.
.	.	.	8f\	.	8b-/	.	16cc\	.	.	.	.	.	.	.	.	.	.	.	.	.	.	.	.
.	.	.	.	.	.	.	16dd\JJ)	.	.	.	.	.	.	.	.	.	.	.	.	.	.	.	.
.	.	.	8f\	.	8b-/	.	2dd\	.	.	.	.	.	.	.	.	.	.	.	.	.	.	.	.
.	.	.	8f\	.	8b-/	.	.	.	.	.	.	.	.	.	.	.	.	.	.	.	.	.	.
.	.	.	8f\	.	8b-/	.	.	.	.	.	.	.	.	.	.	.	.	.	.	.	.	.	.
.	.	.	8f\J	.	8b-/J	.	.	.	.	.	.	.	.	.	.	.	.	.	.	.	.	.	.
=51	=51	=51	=51	=51	=51	=51	=51	=51	=51	=51	=51	=51	=51	=51	=51	=51	=51	=51	=51	=51	=51	=51	=51
.	.	.	8f\L	.	8b-/L	.	(4.dd\	.	.	.	.	.	.	.	.	.	2.ryy	2.ryy	2.ryy	2.ryy	2.ryy	2.ryy	2.ryy
.	.	.	8f\	.	8b-/	.	.	.	.	.	.	.	.	.	.	.	.	.	.	.	.	.	.
.	.	.	8f\	.	8b-/	.	.	.	.	.	.	.	.	.	.	.	.	.	.	.	.	.	.
.	.	.	8f\	.	8b-/	.	16ee\LL	.	.	.	.	.	.	.	.	.	.	.	.	.	.	.	.
.	.	.	.	.	.	.	16ff\JJ)	.	.	.	.	.	.	.	.	.	.	.	.	.	.	.	.
.	.	.	8f\	.	8b-/	.	(16gg\LL	.	.	.	.	.	.	.	.	.	.	.	.	.	.	.	.
.	.	.	.	.	.	.	16ff\	.	.	.	.	.	.	.	.	.	.	.	.	.	.	.	.
.	.	.	8f\J	.	8b-/J	.	16ee\	.	.	.	.	.	.	.	.	.	.	.	.	.	.	.	.
.	.	.	.	.	.	.	16dd\JJ)	.	.	.	.	.	.	.	.	.	.	.	.	.	.	.	.
=52	=52	=52	=52	=52	=52	=52	=52	=52	=52	=52	=52	=52	=52	=52	=52	=52	=52	=52	=52	=52	=52	=52	=52
.	.	.	8f\L	.	8a/L	.	(16dd\LL	.	.	.	.	.	.	.	.	.	2.ryy	2.ryy	2.ryy	2.ryy	2.ryy	2.ryy	2.ryy
.	.	.	.	.	.	.	16cc\	.	.	.	.	.	.	.	.	.	.	.	.	.	.	.	.
.	.	.	8f\	.	8a/	.	16b-\	.	.	.	.	.	.	.	.	.	.	.	.	.	.	.	.
.	.	.	.	.	.	.	16cc\JJ)	.	.	.	.	.	.	.	.	.	.	.	.	.	.	.	.
.	.	.	8f\	.	8a/	.	4.cc\	.	.	.	.	.	.	.	.	.	.	.	.	.	.	.	.
.	.	.	8f\	.	8a/	.	.	.	.	.	.	.	.	.	.	.	.	.	.	.	.	.	.
.	.	.	8f\	.	8a/	.	.	.	.	.	.	.	.	.	.	.	.	.	.	.	.	.	.
.	.	.	8f\J	.	8a/J	.	8ff\	.	.	.	.	.	.	.	.	.	.	.	.	.	.	.	.
*	*	*	*Xtremolo	*	*Xtremolo	*	*	*	*	*	*	*	*	*	*	*	*	*	*	*	*	*	*
=53	=53	=53	=53	=53	=53	=53	=53	=53	=53	=53	=53	=53	=53	=53	=53	=53	=53	=53	=53	=53	=53	=53	=53
.	.	.	8B-/L	.	8b-\L	.	16ee\LL	.	.	.	.	.	.	.	.	.	2.ryy	2.ryy	2.ryy	2.ryy	2.ryy	2.ryy	2.ryy
.	.	.	.	.	.	.	16dd\JJ	.	.	.	.	.	.	.	.	.	.	.	.	.	.	.	.
.	.	.	8B-/	.	8dd\	.	4gg\	.	.	.	.	.	.	.	.	.	.	.	.	.	.	.	.
.	.	.	8B-/	.	8dd\	.	.	.	.	.	.	.	.	.	.	.	.	.	.	.	.	.	.
.	.	.	8B-/	.	8dd\J	.	16bb-\LL	.	.	.	.	.	.	.	.	.	.	.	.	.	.	.	.
.	.	.	.	.	.	.	16gg\JJ	.	.	.	.	.	.	.	.	.	.	.	.	.	.	.	.
.	.	.	8c/	.	8a/L	.	16gg\LL	.	.	.	.	.	.	.	.	.	.	.	.	.	.	.	.
.	.	.	.	.	.	.	16ff\	.	.	.	.	.	.	.	.	.	.	.	.	.	.	.	.
.	.	.	8C/J	.	8g/J	.	16ff\	.	.	.	.	.	.	.	.	.	.	.	.	.	.	.	.
.	.	.	.	.	.	.	16ee\JJ	.	.	.	.	.	.	.	.	.	.	.	.	.	.	.	.
=54	=54	=54	=54	=54	=54	=54	=54	=54	=54	=54	=54	=54	=54	=54	=54	=54	=54	=54	=54	=54	=54	=54	=54
2.r	.	.	4F/	.	4a/	.	(16ff\LL	.	0.r	.	0.r	.	0.r	.	0.r	.	2.ryy	2.ryy	2.ryy	2.ryy	2.ryy	2.ryy	2.ryy
.	.	.	.	.	.	.	16gg\	.	.	.	.	.	.	.	.	.	.	.	.	.	.	.	.
.	.	.	.	.	.	.	16aa\	.	.	.	.	.	.	.	.	.	.	.	.	.	.	.	.
.	.	.	.	.	.	.	16gg\JJ)	.	.	.	.	.	.	.	.	.	.	.	.	.	.	.	.
.	.	.	4F/	.	4a/	.	(8ff|>\L	.	.	.	.	.	.	.	.	.	.	.	.	.	.	.	.
.	.	.	.	.	.	.	8ff|>\	.	.	.	.	.	.	.	.	.	.	.	.	.	.	.	.
.	.	.	4r	.	4r	.	8ff|>\	.	.	.	.	.	.	.	.	.	.	.	.	.	.	.	.
.	.	.	.	.	.	.	8ff|>\J)	.	.	.	.	.	.	.	.	.	.	.	.	.	.	.	.
!	!	!	!	!	!	!	!LO:LB:g=original	!	!	!	!	!	!	!	!	!	!	!	!	!	!	!	!
=55	=55	=55	=55	=55	=55	=55	=55	=55	=55	=55	=55	=55	=55	=55	=55	=55	=55	=55	=55	=55	=55	=55	=55
2f\	3	.	2f\	.	2a/	.	(8.cc\L	.	.	.	.	.	.	.	.	.	2.ryy	2.ryy	2.ryy	2.ryy	2.ryy	2.ryy	2.ryy
.	.	.	.	.	.	.	16ff\Jk)	.	.	.	.	.	.	.	.	.	.	.	.	.	.	.	.
.	.	.	.	.	.	.	8r	.	.	.	.	.	.	.	.	.	.	.	.	.	.	.	.
.	.	.	.	.	.	.	8ff\	.	.	.	.	.	.	.	.	.	.	.	.	.	.	.	.
4e\	.	.	4e\	.	4g/	.	(16gg\LL	.	.	.	.	.	.	.	.	.	.	.	.	.	.	.	.
.	.	.	.	.	.	.	16ff\	.	.	.	.	.	.	.	.	.	.	.	.	.	.	.	.
.	.	.	.	.	.	.	16ee\	.	.	.	.	.	.	.	.	.	.	.	.	.	.	.	.
.	.	.	.	.	.	.	16ff\JJ)	.	.	.	.	.	.	.	.	.	.	.	.	.	.	.	.
=56	=56	=56	=56	=56	=56	=56	=56	=56	=56	=56	=56	=56	=56	=56	=56	=56	=56	=56	=56	=56	=56	=56	=56
2d\	.	.	2d\	.	2f/	.	(8.a\L	.	.	.	.	.	.	.	.	.	2.ryy	2.ryy	2.ryy	2.ryy	2.ryy	2.ryy	2.ryy
.	.	.	.	.	.	.	16ff\Jk)	.	.	.	.	.	.	.	.	.	.	.	.	.	.	.	.
.	.	.	.	.	.	.	8r	.	.	.	.	.	.	.	.	.	.	.	.	.	.	.	.
.	.	.	.	.	.	.	8ff\	.	.	.	.	.	.	.	.	.	.	.	.	.	.	.	.
4c\	.	.	4c\	.	4e/	.	(16gg\LL	.	.	.	.	.	.	.	.	.	.	.	.	.	.	.	.
.	.	.	.	.	.	.	16ff\	.	.	.	.	.	.	.	.	.	.	.	.	.	.	.	.
.	.	.	.	.	.	.	16ee\	.	.	.	.	.	.	.	.	.	.	.	.	.	.	.	.
.	.	.	.	.	.	.	16ff\JJ)	.	.	.	.	.	.	.	.	.	.	.	.	.	.	.	.
!	!	!	!LO:LB:g=original	!	!	!	!	!	!	!	!	!	!	!	!	!	!	!	!	!	!	!	!
=57	=57	=57	=57	=57	=57	=57	=57	=57	=57	=57	=57	=57	=57	=57	=57	=57	=57	=57	=57	=57	=57	=57	=57
4B-\	3	.	4B-/	.	4d/	.	(8.dd\L	.	.	.	.	.	.	.	.	.	2.ryy	2.ryy	2.ryy	2.ryy	2.ryy	2.ryy	2.ryy
.	.	.	.	.	.	.	16ff\Jk)	.	.	.	.	.	.	.	.	.	.	.	.	.	.	.	.
4A\	_	.	4B-/	.	4dd\	.	8r	.	.	.	.	.	.	.	.	.	.	.	.	.	.	.	.
.	.	.	.	.	.	.	8ff\	.	.	.	.	.	.	.	.	.	.	.	.	.	.	.	.
4G#X\	x	.	4B-/	.	4cc\	.	(16gg\LL	.	.	.	.	.	.	.	.	.	.	.	.	.	.	.	.
.	.	.	.	.	.	.	16ff\	.	.	.	.	.	.	.	.	.	.	.	.	.	.	.	.
.	.	.	.	.	.	.	16ee\	.	.	.	.	.	.	.	.	.	.	.	.	.	.	.	.
.	.	.	.	.	.	.	16ff\JJ)	.	.	.	.	.	.	.	.	.	.	.	.	.	.	.	.
!	!	!	!	!	!LO:LB:g=original	!	!	!	!	!	!	!	!	!	!	!	!	!	!	!	!	!	!
=58	=58	=58	=58	=58	=58	=58	=58	=58	=58	=58	=58	=58	=58	=58	=58	=58	=58	=58	=58	=58	=58	=58	=58
4A\	4#	.	4A/	.	8.ddT\L	.	8.ff\L	.	0.r	.	0.r	.	0.r	.	0.r	.	2.ryy	2.ryy	2.ryy	2.ryy	2.ryy	2.ryy	2.ryy
.	.	.	.	.	32cc#X\LL	.	32ee\LL	.	.	.	.	.	.	.	.	.	.	.	.	.	.	.	.
.	.	.	.	.	32dd\JJJ	.	32ff\JJJ	.	.	.	.	.	.	.	.	.	.	.	.	.	.	.	.
4AA/	.	.	4A/	.	4cc#\	.	(8ee\L	.	.	.	.	.	.	.	.	.	.	.	.	.	.	.	.
.	.	.	.	.	.	.	8aa|>\	.	.	.	.	.	.	.	.	.	.	.	.	.	.	.	.
4r	.	.	4r	.	4r	.	8aa|>\	.	.	.	.	.	.	.	.	.	.	.	.	.	.	.	.
.	.	.	.	.	.	.	8aa|>\J)	.	.	.	.	.	.	.	.	.	.	.	.	.	.	.	.
=59	=59	=59	=59	=59	=59	=59	=59	=59	=59	=59	=59	=59	=59	=59	=59	=59	=59	=59	=59	=59	=59	=59	=59
4AA/	#	.	(8c#X\L	.	(8e/L	.	(8.aa\L	.	.	.	.	.	.	.	.	.	2.ryy	2.ryy	2.ryy	2.ryy	2.ryy	2.ryy	2.ryy
.	.	.	8d\)	.	8g/)	.	.	.	.	.	.	.	.	.	.	.	.	.	.	.	.	.	.
.	.	.	.	.	.	.	16cc#X\Jk)	.	.	.	.	.	.	.	.	.	.	.	.	.	.	.	.
4AA/	.	.	(8c#\	.	(8e/	.	8r	.	.	.	.	.	.	.	.	.	.	.	.	.	.	.	.
.	.	.	8d\)	.	8g/)	.	8cc#\	.	.	.	.	.	.	.	.	.	.	.	.	.	.	.	.
4AA/	.	.	(8c#\	.	(8e/	.	8.cc#t\L	.	.	.	.	.	.	.	.	.	.	.	.	.	.	.	.
.	.	.	8d\J)	.	8g/J)	.	.	.	.	.	.	.	.	.	.	.	.	.	.	.	.	.	.
!	!	!	!	!	!	!	!LO:SIC:s=32bLL	!	!	!	!	!	!	!	!	!	!	!	!	!	!	!	!
.	.	.	.	.	.	.	32b-\LL	.	.	.	.	.	.	.	.	.	.	.	.	.	.	.	.
.	.	.	.	.	.	.	32cc#\JJJ	.	.	.	.	.	.	.	.	.	.	.	.	.	.	.	.
!LO:LB:g=original	!	!	!	!	!	!	!	!	!	!	!	!	!	!	!	!	!	!	!	!	!	!	!
=60	=60	=60	=60	=60	=60	=60	=60	=60	=60	=60	=60	=60	=60	=60	=60	=60	=60	=60	=60	=60	=60	=60	=60
!	!	!	!	!	!	!	!LO:SIC:s=(8cc#L	!	!	!	!	!	!	!	!	!	!	!	!	!	!	!	!
4D\	.	.	(8e\L	.	(8g/L	.	(8cc\L	.	.	.	.	.	.	.	.	.	2.ryy	2.ryy	2.ryy	2.ryy	2.ryy	2.ryy	2.ryy
.	.	.	8d\J)	.	8f/J)	.	8dd\J)	.	.	.	.	.	.	.	.	.	.	.	.	.	.	.	.
!	!	!	!	!	!	!	!LO:LB:g=original	!	!	!	!	!	!	!	!	!	!	!	!	!	!	!	!
4DD/	.	.	4A/	.	4f/	.	8r	.	.	.	.	.	.	.	.	.	.	.	.	.	.	.	.
.	.	.	.	.	.	.	(8aa|>\L	.	.	.	.	.	.	.	.	.	.	.	.	.	.	.	.
4r	.	.	4r	.	4r	.	8aa|>\	.	.	.	.	.	.	.	.	.	.	.	.	.	.	.	.
.	.	.	.	.	.	.	8aa|>\J)	.	.	.	.	.	.	.	.	.	.	.	.	.	.	.	.
=61	=61	=61	=61	=61	=61	=61	=61	=61	=61	=61	=61	=61	=61	=61	=61	=61	=61	=61	=61	=61	=61	=61	=61
4AA/	#	.	(8c#X\L	.	(8e/L	.	(8.aa\L	.	.	.	.	.	.	.	.	.	2.ryy	2.ryy	2.ryy	2.ryy	2.ryy	2.ryy	2.ryy
.	.	.	8d\)	.	8g/)	.	.	.	.	.	.	.	.	.	.	.	.	.	.	.	.	.	.
.	.	.	.	.	.	.	16cc#X\Jk)	.	.	.	.	.	.	.	.	.	.	.	.	.	.	.	.
4AA/	_	.	(8c#\	.	(8e/	.	8r	.	.	.	.	.	.	.	.	.	.	.	.	.	.	.	.
.	.	.	8d\)	.	8g/)	.	8cc#\	.	.	.	.	.	.	.	.	.	.	.	.	.	.	.	.
4AA/	x	.	(8c#\	.	(8e/	.	8.cc#t\L	.	.	.	.	.	.	.	.	.	.	.	.	.	.	.	.
.	.	.	8d\J)	.	8g/J)	.	.	.	.	.	.	.	.	.	.	.	.	.	.	.	.	.	.
!	!	!	!	!	!	!	!LO:SIC:s=32bLL	!	!	!	!	!	!	!	!	!	!	!	!	!	!	!	!
.	.	.	.	.	.	.	32b-\LL	.	.	.	.	.	.	.	.	.	.	.	.	.	.	.	.
.	.	.	.	.	.	.	32cc#\JJJ	.	.	.	.	.	.	.	.	.	.	.	.	.	.	.	.
=62	=62	=62	=62	=62	=62	=62	=62	=62	=62	=62	=62	=62	=62	=62	=62	=62	=62	=62	=62	=62	=62	=62	=62
!	!	!	!	!	!	!	!LO:SIC:s=(8cc#L	!	!	!	!	!	!	!	!	!	!	!	!	!	!	!	!
4D\	.	.	(8e\L	.	(8g/L	.	(8cc\L	.	4r	.	0.r	.	0.r	.	0.r	.	2.ryy	2.ryy	2.ryy	2.ryy	2.ryy	2.ryy	2.ryy
.	.	.	8d\J)	.	8f/J)	.	8dd\J)	.	.	.	.	.	.	.	.	.	.	.	.	.	.	.	.
4DD/	.	.	4A/	.	4f/	.	4dd\	.	4r	.	.	.	.	.	.	.	.	.	.	.	.	.	.
4r	.	.	4r	.	4r	.	4r	.	8r	.	.	.	.	.	.	.	.	.	.	.	.	.	.
!	!	!	!	!	!	!	!	!	!LO:MO:mod=!LO&colon;TX&colon;a&colon;i&colon;t=Solo	!	!	!	!	!	!	!	!	!	!	!	!	!	!
!	!	!	!	!	!	!	!	!	!LO:TX:a:i:t=Solo&colon;	!	!	!	!	!	!	!	!	!	!	!	!	!	!
.	.	.	.	.	.	.	.	.	8D\	Qui	.	.	.	.	.	.	.	.	.	.	.	.	.
=63	=63	=63	=63	=63	=63	=63	=63	=63	=63	=63	=63	=63	=63	=63	=63	=63	=63	=63	=63	=63	=63	=63	=63
!	!	!LO:DY:a:t=p&colon;:mod= 	!	!LO:DY:a:t=p&colon;:mod= 	!	!LO:DY:a:t=p&colon;:mod= 	!	!LO:DY:a:t=pio&colon;:mod= 	!	!LO:MO:mod=se-	!	!	!	!	!	!	!	!	!	!	!	!	!
8r	.	p	8r	p	8r	p	8r	p	4A\	Se-	.	.	.	.	.	.	2.ryy	2.ryy	2.ryy	2.ryy	2.ryy	2.ryy	2.ryy
!	!	!LO:DY:t= :mod=%s	!	!LO:DY:t= :mod=%s	!	!LO:DY:t= :mod=%s	!	!LO:DY:t= :mod=%s	!	!	!	!	!	!	!	!	!	!	!	!	!	!	!
8d\L	5 3	p	8d\L	p	8f/L	p	(8ff\L	p	.	.	.	.	.	.	.	.	.	.	.	.	.	.	.
8c#X\	_ 3	.	8c#X\	.	8e/	.	8ee\	.	4A\	-des	.	.	.	.	.	.	.	.	.	.	.	.	.
8d\	_ 3	.	8d\	.	8f/	.	8ff\	.	.	.	.	.	.	.	.	.	.	.	.	.	.	.	.
*	*	*	*	*	*	*	*	*	*	*ij	*	*	*	*	*	*	*	*	*	*	*	*	*
!	!	!	!	!	!	!	!	!	!	!LO:MO:mod=qui	!	!	!	!	!	!	!	!	!	!	!	!	!
8e\	_ 3	.	8e\	.	8g/	.	8gg\	.	4A\	Qui	.	.	.	.	.	.	.	.	.	.	.	.	.
8c#\J	_ 3	.	8c#\J	.	8e/J	.	8ee\J)	.	.	.	.	.	.	.	.	.	.	.	.	.	.	.	.
!	!	!	!LO:LB:g=original	!	!	!	!	!	!	!	!	!	!	!	!	!	!	!	!	!	!	!	!
=64	=64	=64	=64	=64	=64	=64	=64	=64	=64	=64	=64	=64	=64	=64	=64	=64	=64	=64	=64	=64	=64	=64	=64
!	!	!	!	!	!	!	!	!	!	!LO:MO:mod=se-	!	!	!	!	!	!	!	!	!	!	!	!	!
4d\	x	.	4A/	.	8e/L	.	(8ee\L	.	8.A\L	Se-	.	.	.	.	.	.	2.ryy	2.ryy	2.ryy	2.ryy	2.ryy	2.ryy	2.ryy
.	.	.	.	.	8f/J	.	8ff\J)	.	.	.	.	.	.	.	.	.	.	.	.	.	.	.	.
.	.	.	.	.	.	.	.	.	16F\Jk	.	.	.	.	.	.	.	.	.	.	.	.	.	.
4D\	.	.	4A/	.	8r	.	8r	.	4D\	-des	.	.	.	.	.	.	.	.	.	.	.	.	.
*	*	*	*	*	*	*	*	*	*	*Xij	*	*	*	*	*	*	*	*	*	*	*	*	*
.	.	.	.	.	(8f|</L	.	(8dd|>\L	.	.	.	.	.	.	.	.	.	.	.	.	.	.	.	.
4r	.	.	4r	.	8f|</	.	8dd|>\	.	8r	.	.	.	.	.	.	.	.	.	.	.	.	.	.
.	.	.	.	.	8f|</J)	.	8dd|>\J)	.	8D\	ad	.	.	.	.	.	.	.	.	.	.	.	.	.
!	!	!	!	!	!	!	!	!	!LO:LB:g=original	!	!	!	!	!	!	!	!	!	!	!	!	!	!
=65	=65	=65	=65	=65	=65	=65	=65	=65	=65	=65	=65	=65	=65	=65	=65	=65	=65	=65	=65	=65	=65	=65	=65
8r	.	.	8r	.	2f/	.	2dd\	.	4.d\	dex-	.	.	.	.	.	.	2.ryy	2.ryy	2.ryy	2.ryy	2.ryy	2.ryy	2.ryy
8d\L	3_	.	4A/	.	.	.	.	.	.	.	.	.	.	.	.	.	.	.	.	.	.	.	.
8c#X\	.	.	.	.	.	.	.	.	.	.	.	.	.	.	.	.	.	.	.	.	.	.	.
8B-\	.	.	4B-/	.	.	.	.	.	8d\	-te-	.	.	.	.	.	.	.	.	.	.	.	.	.
!	!	!	!	!	!LO:LB:g=original	!	!	!	!	!	!	!	!	!	!	!	!	!	!	!	!	!	!
8A\	.	.	.	.	(16g/LL	.	(16ee\LL	.	4d\	-ram	.	.	.	.	.	.	.	.	.	.	.	.	.
.	.	.	.	.	16f/	.	16dd\	.	.	.	.	.	.	.	.	.	.	.	.	.	.	.	.
8G#X\J	x	.	8B-/	.	16e/	.	16cc#X\	.	.	.	.	.	.	.	.	.	.	.	.	.	.	.	.
.	.	.	.	.	16f/JJ)	.	16dd\JJ)	.	.	.	.	.	.	.	.	.	.	.	.	.	.	.	.
=66	=66	=66	=66	=66	=66	=66	=66	=66	=66	=66	=66	=66	=66	=66	=66	=66	=66	=66	=66	=66	=66	=66	=66
!	!	!	!	!	!	!	!	!	!	!LO:MO:mod=Pa-	!	!	!	!	!	!	!	!	!	!	!	!	!
4A\	#	.	4A/	.	(8f/L	.	(8dd\L	.	8d\L	pa-	1.r	.	1.r	.	1.r	.	2.ryy	2.ryy	2.ryy	2.ryy	2.ryy	2.ryy	2.ryy
!	!	!	!	!	!	!	!LO:SIC:v:s=8cc#\J)	!	!	!	!	!	!	!	!	!	!	!	!	!	!	!	!
.	.	.	.	.	8e/J)	.	8cc\J)	.	8c#X\J	.	.	.	.	.	.	.	.	.	.	.	.	.	.
4AA/	.	.	4A/	.	8r	.	8r	.	4c#\	-tris	.	.	.	.	.	.	.	.	.	.	.	.	.
!	!	!	!	!	!	!	!LO:SIC:v:s=(8cc#|>\L	!	!	!	!	!	!	!	!	!	!	!	!	!	!	!	!
.	.	.	.	.	(8e|</L	.	(8cc|>\L	.	.	.	.	.	.	.	.	.	.	.	.	.	.	.	.
!	!	!	!	!	!	!	!LO:SIC:v:s=8cc#|>\	!	!	!	!	!	!	!	!	!	!	!	!	!	!	!	!
4r	.	.	4r	.	8e|</	.	8cc|>\	.	8r	.	.	.	.	.	.	.	.	.	.	.	.	.	.
!	!	!	!	!	!	!	!LO:SIC:v:s=8cc#|>\J)	!	!	!	!	!	!	!	!	!	!	!	!	!	!	!	!
.	.	.	.	.	8e|</J)	.	8cc|>\J)	.	8c#\	ad	.	.	.	.	.	.	.	.	.	.	.	.	.
!LO:PB:g=original	!	!	!	!	!	!	!LO:LB:g=original	!	!	!	!	!	!	!	!	!	!	!	!	!	!	!	!
=67	=67	=67	=67	=67	=67	=67	=67	=67	=67	=67	=67	=67	=67	=67	=67	=67	=67	=67	=67	=67	=67	=67	=67
8r	.	.	8r	.	2f/	.	2dd\	.	4.d\	dex-	.	.	.	.	.	.	2.ryy	2.ryy	2.ryy	2.ryy	2.ryy	2.ryy	2.ryy
8d\L	3_	.	4A/	.	.	.	.	.	.	.	.	.	.	.	.	.	.	.	.	.	.	.	.
8c#X\	.	.	.	.	.	.	.	.	.	.	.	.	.	.	.	.	.	.	.	.	.	.	.
8B-\	.	.	4B-/	.	.	.	.	.	8d\	-te-	.	.	.	.	.	.	.	.	.	.	.	.	.
8A\	.	.	.	.	(16g/LL	.	(16ee\LL	.	4d\	-ram	.	.	.	.	.	.	.	.	.	.	.	.	.
.	.	.	.	.	16f/	.	16dd\	.	.	.	.	.	.	.	.	.	.	.	.	.	.	.	.
!	!	!	!	!	!	!	!LO:SIC:v:s=16cc#\	!	!	!	!	!	!	!	!	!	!	!	!	!	!	!	!
8G#X\J	x	.	8B-/	.	16e/	.	16cc\	.	.	.	.	.	.	.	.	.	.	.	.	.	.	.	.
.	.	.	.	.	16f/JJ)	.	16dd\JJ)	.	.	.	.	.	.	.	.	.	.	.	.	.	.	.	.
=68	=68	=68	=68	=68	=68	=68	=68	=68	=68	=68	=68	=68	=68	=68	=68	=68	=68	=68	=68	=68	=68	=68	=68
!	!	!	!	!	!	!	!	!	!	!LO:MO:mod=Pa-	!	!	!	!	!	!	!	!	!	!	!	!	!
4A\	#	.	4A/	.	8f/L	.	8dd\L	.	8d\L	pa-	2.r;>	.	2.r;>	.	2.r;>	.	2.ryy	2.ryy	2.ryy	2.ryy	2.ryy	2.ryy	2.ryy
.	.	.	.	.	8e/J	.	8cc#X\J	.	8c#X\J	.	.	.	.	.	.	.	.	.	.	.	.	.	.
4AA;>/	.	.	4A;>/	.	4e;>/	.	4cc#;>\	.	4c#;>\	-tris	.	.	.	.	.	.	.	.	.	.	.	.	.
4r	.	.	4r	.	4r	.	4r	.	4r	.	.	.	.	.	.	.	.	.	.	.	.	.	.
!	!	!	!	!	!	!	!	!	!	!	!	!	!	!	!LO:LB:g=original	!	!	!	!	!	!	!	!
=69	=69	=69	=69	=69	=69	=69	=69	=69	=69	=69	=69	=69	=69	=69	=69	=69	=69	=69	=69	=69	=69	=69	=69
!!LO:TX:a:t= :mod=Tutti
!	!	!LO:DY:t= :mod=%s	!	!	!	!	!	!	!	!	!	!	!	!	!	!	!	!	!	!	!	!	!
!	!	!LO:MO:mod=!LO&colon;DY&colon;ed=brack	!	!	!	!	!	!	!	!	!	!	!	!	!	!	!	!	!	!	!	!	!
!LO:TX:a:i:t=tutti:mod=	!	!null	!	!LO:DY:a:t=f&colon;:mod=%s	!	!LO:DY:a:t=f&colon;:mod= 	!	!LO:DY:a:t=for&colon;:mod= 	!	!	!	!	!	!	!	!	!	!	!	!	!	!	!
8D\	.	f	8A/	f	16r	f	16r	f	2D\	mi-	2A\	mi-	2f\	mi-	2dd\	mi-	2.ryy	2.ryy	2.ryy	2.ryy	2.ryy	2.ryy	2.ryy
!	!	!	!	!	!	!LO:DY:t= :mod=%s	!	!LO:DY:t= :mod=%s	!	!	!	!	!	!	!	!	!	!	!	!	!	!	!
.	.	.	.	.	16f|</LL	f	16dd|>\LL	f	.	.	.	.	.	.	.	.	.	.	.	.	.	.	.
!	!	!	!	!	!	!	!LO:SIC:v:s=(16cc#\	!	!	!	!	!	!	!	!	!	!	!	!	!	!	!	!
8r	.	.	8r	.	(16e/	.	(16cc\	.	.	.	.	.	.	.	.	.	.	.	.	.	.	.	.
.	.	.	.	.	16f/JJ)	.	16dd\JJ)	.	.	.	.	.	.	.	.	.	.	.	.	.	.	.	.
8D\	.	.	8A/	.	16r	.	16r	.	.	.	.	.	.	.	.	.	.	.	.	.	.	.	.
.	.	.	.	.	16f|</LL	.	16dd|>\LL	.	.	.	.	.	.	.	.	.	.	.	.	.	.	.	.
!	!	!	!	!	!	!	!LO:SIC:v:s=(16cc#\	!	!	!	!	!	!	!	!	!	!	!	!	!	!	!	!
8r	.	.	8r	.	(16e/	.	(16cc\	.	.	.	.	.	.	.	.	.	.	.	.	.	.	.	.
.	.	.	.	.	16f/JJ)	.	16dd\JJ)	.	.	.	.	.	.	.	.	.	.	.	.	.	.	.	.
!	!	!	!	!	!	!	!	!	!	!	!	!	!	!	!LO:SIC:s=4dd	!	!	!	!	!	!	!	!
8D\	.	.	8A/	.	16r	.	16r	.	4D\	-ſe-	4A\	-ſe-	4f\	-ſe-	4cc\	-ſe-	.	.	.	.	.	.	.
.	.	.	.	.	16f|</LL	.	16dd|>\LL	.	.	.	.	.	.	.	.	.	.	.	.	.	.	.	.
!	!	!	!	!	!	!	!LO:SIC:v:s=(16cc#\	!	!	!	!	!	!	!	!	!	!	!	!	!	!	!	!
8r	.	.	8r	.	(16e/	.	(16cc\	.	.	.	.	.	.	.	.	.	.	.	.	.	.	.	.
.	.	.	.	.	16f/JJ)	.	16dd\JJ)	.	.	.	.	.	.	.	.	.	.	.	.	.	.	.	.
!	!	!	!	!	!	!	!	!	!	!	!	!	!LO:LB:g=original	!	!	!	!	!	!	!	!	!	!
=70	=70	=70	=70	=70	=70	=70	=70	=70	=70	=70	=70	=70	=70	=70	=70	=70	=70	=70	=70	=70	=70	=70	=70
8E\	6/ 3	.	8A/	.	16r	.	16r	.	2E\	-re-	2A\	-re-	2g\	-re-	2cc#X\	-re-	2.ryy	2.ryy	2.ryy	2.ryy	2.ryy	2.ryy	2.ryy
.	.	.	.	.	16g|</LL	.	16cc#X|>\LL	.	.	.	.	.	.	.	.	.	.	.	.	.	.	.	.
!	!	!	!	!	!	!	!LO:SIC:s=(16b	!	!	!	!	!	!	!	!	!	!	!	!	!	!	!	!
8r	.	.	8r	.	(16f/	.	(16b-\	.	.	.	.	.	.	.	.	.	.	.	.	.	.	.	.
.	.	.	.	.	16g/JJ)	.	16cc#\JJ)	.	.	.	.	.	.	.	.	.	.	.	.	.	.	.	.
8E\	_ _	.	8A/	.	16r	.	16r	.	.	.	.	.	.	.	.	.	.	.	.	.	.	.	.
.	.	.	.	.	16g|</LL	.	16cc#|>\LL	.	.	.	.	.	.	.	.	.	.	.	.	.	.	.	.
!	!	!	!	!	!	!	!LO:SIC:s=(16b	!	!	!	!	!	!	!	!	!	!	!	!	!	!	!	!
8r	x x	.	8r	.	(16f/	.	(16b-\	.	.	.	.	.	.	.	.	.	.	.	.	.	.	.	.
.	.	.	.	.	16g/JJ)	.	16cc#\JJ)	.	.	.	.	.	.	.	.	.	.	.	.	.	.	.	.
8E\	.	.	8A/	.	16r	.	16r	.	4E\	-re	4A\	-re	4g\	-re	4cc#\	-re	.	.	.	.	.	.	.
.	.	.	.	.	16g|</LL	.	16cc#|>\LL	.	.	.	.	.	.	.	.	.	.	.	.	.	.	.	.
!	!	!	!	!	!	!	!LO:SIC:s=(16b	!	!	!	!	!	!	!	!	!	!	!	!	!	!	!	!
8r	.	.	8r	.	(16f/	.	(16b-\	.	.	.	.	.	.	.	.	.	.	.	.	.	.	.	.
.	.	.	.	.	16g/JJ)	.	16cc#\JJ)	.	.	.	.	.	.	.	.	.	.	.	.	.	.	.	.
!	!	!	!LO:LB:g=original	!	!	!	!	!	!	!	!LO:LB:g=original	!	!	!	!	!	!	!	!	!	!	!	!
=71	=71	=71	=71	=71	=71	=71	=71	=71	=71	=71	=71	=71	=71	=71	=71	=71	=71	=71	=71	=71	=71	=71	=71
*	*	*	*	*	*	*	*	*	*	*ij	*	*	*	*	*	*ij	*	*	*	*	*	*	*
!	!	!	!	!	!	!	!	!	!	!	!	!	!	!	!LO:SIC:s=2cc#	!	!	!	!	!	!	!	!
8AA/	#	.	8A/	.	16r	.	16r	.	2AA/	mi-	2A\	mi-	2e\	mi-	2cc\	mi-	2.ryy	2.ryy	2.ryy	2.ryy	2.ryy	2.ryy	2.ryy
.	.	.	.	.	16e|</LL	.	16cc#X|>\LL	.	.	.	.	.	.	.	.	.	.	.	.	.	.	.	.
!	!	!	!	!	!	!	!LO:SIC:s=(16b	!	!	!	!	!	!	!	!	!	!	!	!	!	!	!	!
8r	.	.	8r	.	(16d/	.	(16b-\	.	.	.	.	.	.	.	.	.	.	.	.	.	.	.	.
.	.	.	.	.	16e/JJ)	.	16cc#\JJ)	.	.	.	.	.	.	.	.	.	.	.	.	.	.	.	.
8AA/	_	.	8A/	.	16r	.	16r	.	.	.	.	.	.	.	.	.	.	.	.	.	.	.	.
.	.	.	.	.	16e|</LL	.	16cc#|>\LL	.	.	.	.	.	.	.	.	.	.	.	.	.	.	.	.
!	!	!	!	!	!	!	!LO:SIC:s=(16b	!	!	!	!	!	!	!	!	!	!	!	!	!	!	!	!
8r	x	.	8r	.	(16d/	.	(16b-\	.	.	.	.	.	.	.	.	.	.	.	.	.	.	.	.
.	.	.	.	.	16e/JJ)	.	16cc#\JJ)	.	.	.	.	.	.	.	.	.	.	.	.	.	.	.	.
!	!	!	!	!	!	!	!LO:LB:g=original	!	!	!	!	!	!	!	!LO:SIC:s=4cc#	!	!	!	!	!	!	!	!
8AA/	.	.	8A/	.	16r	.	16r	.	4AA/	-ſe-	4A\	-ſe-	4e\	-ſe-	4cc\	-ſe-	.	.	.	.	.	.	.
.	.	.	.	.	16e|</LL	.	16cc#|>\LL	.	.	.	.	.	.	.	.	.	.	.	.	.	.	.	.
!	!	!	!	!	!	!	!LO:SIC:s=(16b	!	!	!	!	!	!	!	!	!	!	!	!	!	!	!	!
8r	.	.	8r	.	(16d/	.	(16b-\	.	.	.	.	.	.	.	.	.	.	.	.	.	.	.	.
.	.	.	.	.	16e/JJ)	.	16cc#\JJ)	.	.	.	.	.	.	.	.	.	.	.	.	.	.	.	.
=72	=72	=72	=72	=72	=72	=72	=72	=72	=72	=72	=72	=72	=72	=72	=72	=72	=72	=72	=72	=72	=72	=72	=72
8D\	.	.	8A/	.	16r	.	16r	.	2D\	-re-	2A\	-re-	2f\	-re-	2dd\	-re-	2.ryy	2.ryy	2.ryy	2.ryy	2.ryy	2.ryy	2.ryy
.	.	.	.	.	16f|</LL	.	16dd|>\LL	.	.	.	.	.	.	.	.	.	.	.	.	.	.	.	.
8r	.	.	8r	.	(16e/	.	(16cc#X\	.	.	.	.	.	.	.	.	.	.	.	.	.	.	.	.
.	.	.	.	.	16f/JJ)	.	16dd\JJ)	.	.	.	.	.	.	.	.	.	.	.	.	.	.	.	.
8D\	.	.	8A/	.	16r	.	16r	.	.	.	.	.	.	.	.	.	.	.	.	.	.	.	.
.	.	.	.	.	16f|</LL	.	16dd|>\LL	.	.	.	.	.	.	.	.	.	.	.	.	.	.	.	.
8r	.	.	8r	.	(16e/	.	(16cc#\	.	.	.	.	.	.	.	.	.	.	.	.	.	.	.	.
.	.	.	.	.	16f/JJ)	.	16dd\JJ)	.	.	.	.	.	.	.	.	.	.	.	.	.	.	.	.
8D\	.	.	8A/	.	16r	.	16r	.	4D\	-re	4A\	-re	4f\	-re	4dd\	-re	.	.	.	.	.	.	.
*	*	*	*	*	*	*	*	*	*	*Xij	*	*	*	*	*	*	*	*	*	*	*	*	*
.	.	.	.	.	16f|</LL	.	16dd|>\LL	.	.	.	.	.	.	.	.	.	.	.	.	.	.	.	.
8r	.	.	8r	.	(16e/	.	(16cc#\	.	.	.	.	.	.	.	.	.	.	.	.	.	.	.	.
.	.	.	.	.	16f/JJ)	.	16dd\JJ)	.	.	.	.	.	.	.	.	.	.	.	.	.	.	.	.
!LO:LB:g=original	!	!	!	!	!	!	!	!	!LO:LB:g=original	!	!	!	!	!	!	!	!	!	!	!	!	!	!
=73	=73	=73	=73	=73	=73	=73	=73	=73	=73	=73	=73	=73	=73	=73	=73	=73	=73	=73	=73	=73	=73	=73	=73
*	*	*	*	*	*	*	*	*	*	*	*	*ij	*	*ij	*	*	*	*	*	*	*	*	*
!LO:SIC:s=8G	!	!	!	!	!	!	!	!	!	!	!	!	!	!	!	!	!	!	!	!	!	!	!
8F\	6	.	8B-/	.	16r	.	16r	.	2G\	mi-	2B-\	mi-	2g\	mi-	2ee\	mi-	2.ryy	2.ryy	2.ryy	2.ryy	2.ryy	2.ryy	2.ryy
.	.	.	.	.	16g|</LL	.	16ee|>\LL	.	.	.	.	.	.	.	.	.	.	.	.	.	.	.	.
8r	.	.	8r	.	(16f/	.	(16dd\	.	.	.	.	.	.	.	.	.	.	.	.	.	.	.	.
.	.	.	.	.	16g/JJ)	.	16ee\JJ)	.	.	.	.	.	.	.	.	.	.	.	.	.	.	.	.
8G\	_	.	8B-/	.	16r	.	16r	.	.	.	.	.	.	.	.	.	.	.	.	.	.	.	.
.	.	.	.	.	16g|</LL	.	16ee|>\LL	.	.	.	.	.	.	.	.	.	.	.	.	.	.	.	.
8r	.	.	8r	.	(16f/	.	(16dd\	.	.	.	.	.	.	.	.	.	.	.	.	.	.	.	.
.	.	.	.	.	16g/JJ)	.	16ee\JJ)	.	.	.	.	.	.	.	.	.	.	.	.	.	.	.	.
8A\	#	.	8A/	.	16r	.	16r	.	4A\	-ſe-	4A\	-ſe-	4e\	-ſe-	4cc#X\	-ſe-	.	.	.	.	.	.	.
.	.	.	.	.	16g|</LL	.	16cc#X|>\LL	.	.	.	.	.	.	.	.	.	.	.	.	.	.	.	.
!	!	!	!	!	!	!	!LO:SIC:s=(16b	!	!	!	!	!	!	!	!	!	!	!	!	!	!	!	!
8r	.	.	8r	.	(16f/	.	(16b-\	.	.	.	.	.	.	.	.	.	.	.	.	.	.	.	.
.	.	.	.	.	16g/JJ)	.	16cc#\JJ)	.	.	.	.	.	.	.	.	.	.	.	.	.	.	.	.
=74	=74	=74	=74	=74	=74	=74	=74	=74	=74	=74	=74	=74	=74	=74	=74	=74	=74	=74	=74	=74	=74	=74	=74
8B-\	.	.	8B-/	.	16r	.	16r	.	2B-\	-re-	2B-\	-re-	2f\	-re-	2dd\	-re-	2.ryy	2.ryy	2.ryy	2.ryy	2.ryy	2.ryy	2.ryy
.	.	.	.	.	16f|</LL	.	16dd|>\LL	.	.	.	.	.	.	.	.	.	.	.	.	.	.	.	.
8r	.	.	8r	.	(16e/	.	(16cc#X\	.	.	.	.	.	.	.	.	.	.	.	.	.	.	.	.
.	.	.	.	.	16f/JJ)	.	16dd\JJ)	.	.	.	.	.	.	.	.	.	.	.	.	.	.	.	.
8B-\	.	.	8B-/	.	16r	.	16r	.	.	.	.	.	.	.	.	.	.	.	.	.	.	.	.
.	.	.	.	.	16f|</LL	.	16dd|>\LL	.	.	.	.	.	.	.	.	.	.	.	.	.	.	.	.
8r	.	.	8r	.	(16e/	.	(16cc#\	.	.	.	.	.	.	.	.	.	.	.	.	.	.	.	.
.	.	.	.	.	16f/JJ)	.	16dd\JJ)	.	.	.	.	.	.	.	.	.	.	.	.	.	.	.	.
!	!	!	!	!	!LO:LB:g=original	!	!	!	!	!	!	!	!	!	!	!	!	!	!	!	!	!	!
8F\	6	.	8A/	.	16r	.	16r	.	4F\	-re	4A\	-re	4f\	-re	4dd\	-re	.	.	.	.	.	.	.
*	*	*	*	*	*	*	*	*	*	*	*	*Xij	*	*Xij	*	*Xij	*	*	*	*	*	*	*
.	.	.	.	.	16f|</LL	.	16dd|>\LL	.	.	.	.	.	.	.	.	.	.	.	.	.	.	.	.
8r	.	.	8r	.	(16e/	.	(16cc#\	.	.	.	.	.	.	.	.	.	.	.	.	.	.	.	.
.	.	.	.	.	16f/JJ)	.	16dd\JJ)	.	.	.	.	.	.	.	.	.	.	.	.	.	.	.	.
!	!	!	!	!	!	!	!LO:LB:g=original	!	!	!	!	!	!	!	!	!	!	!	!	!	!	!	!
=75	=75	=75	=75	=75	=75	=75	=75	=75	=75	=75	=75	=75	=75	=75	=75	=75	=75	=75	=75	=75	=75	=75	=75
8G\	6	.	8B-/	.	16r	.	16r	.	4G\	no-	4B-\	no-	4g\	no-	4ee\	no-	2.ryy	2.ryy	2.ryy	2.ryy	2.ryy	2.ryy	2.ryy
.	.	.	.	.	16g|</LL	.	16ee|>\LL	.	.	.	.	.	.	.	.	.	.	.	.	.	.	.	.
8r	.	.	8r	.	(16a/	.	(16ff\	.	.	.	.	.	.	.	.	.	.	.	.	.	.	.	.
.	.	.	.	.	16b-/JJ)	.	16gg\JJ)	.	.	.	.	.	.	.	.	.	.	.	.	.	.	.	.
8A\	4	.	8A/	.	16r	.	16r	.	4A\	.	2A\	.	4f\	.	4dd\	.	.	.	.	.	.	.	.
.	.	.	.	.	16a|</LL	.	16ff|>\LL	.	.	.	.	.	.	.	.	.	.	.	.	.	.	.	.
8r	.	.	8r	.	(16g/	.	(16ee\	.	.	.	.	.	.	.	.	.	.	.	.	.	.	.	.
.	.	.	.	.	16f/JJ)	.	16dd\JJ)	.	.	.	.	.	.	.	.	.	.	.	.	.	.	.	.
!	!	!	!	!	!	!	!	!	!	!	!	!	!	!	!LO:SIC:v:s=4cc#\	!	!	!	!	!	!	!	!
8AA/	#	.	8A/	.	16r	.	16r	.	4AA/	.	.	.	4e\	.	4cc\	.	.	.	.	.	.	.	.
.	.	.	.	.	16g|</LL	.	16ee|>\LL	.	.	.	.	.	.	.	.	.	.	.	.	.	.	.	.
8r	.	.	8r	.	(16f/	.	(16dd\	.	.	.	.	.	.	.	.	.	.	.	.	.	.	.	.
.	.	.	.	.	16e/JJ)	.	16cc#X\JJ)	.	.	.	.	.	.	.	.	.	.	.	.	.	.	.	.
!	!	!	!LO:LB:g=original	!	!	!	!	!	!	!	!	!	!	!	!	!	!	!	!	!	!	!	!
=76	=76	=76	=76	=76	=76	=76	=76	=76	=76	=76	=76	=76	=76	=76	=76	=76	=76	=76	=76	=76	=76	=76	=76
4D\	.	.	4A/	.	4f/	.	4dd\	.	4D\	-bis	4A\	-bis	4f\	-bis	4dd\	-bis	2.ryy	2.ryy	2.ryy	2.ryy	2.ryy	2.ryy	2.ryy
*	*	*	*	*	*	*	*	*	*	*ij	*	*	*	*	*	*	*	*	*	*	*	*	*
!	!	!	!	!	!	!	!	!	!	!	!	!	!LO:SIC:s=4f	!	!	!	!	!	!	!	!	!	!
4r	.	.	4r	.	4r	.	4r	.	4D\	mi-	4d\	mi-	4e\	mi-	4a\	mi-	.	.	.	.	.	.	.
!	!	!	!	!	!	!	!	!	!	!	!	!	!LO:SIC:s=4f	!	!	!	!	!	!	!	!	!	!
4r	.	.	4r	.	4r	.	4r	.	4D\	-ſe-	4d\	-ſe-	4e\	-ſe-	4a\	-ſe-	.	.	.	.	.	.	.
!	!	!	!	!	!	!	!	!	!	!	!	!	!	!	!LO:LB:g=original	!	!	!	!	!	!	!	!
=77	=77	=77	=77	=77	=77	=77	=77	=77	=77	=77	=77	=77	=77	=77	=77	=77	=77	=77	=77	=77	=77	=77	=77
!	!	!	!	!	!	!	!	!	!	!	!	!	!	!	!LO:SIC:s=(4b	!	!	!	!	!	!	!	!
1.r	.	.	2.r	.	1.r	.	1.r	.	2D\	-re-	2d\	-re-	(4g\	-re-	(4b-\	-re-	2.ryy	2.ryy	2.ryy	2.ryy	2.ryy	2.ryy	2.ryy
.	.	.	.	.	.	.	.	.	.	.	.	.	4e\)	.	4cc#X\)	.	.	.	.	.	.	.	.
.	.	.	.	.	.	.	.	.	4D\	-re	4d\	-re	4f\	-re	4dd\	-re	.	.	.	.	.	.	.
=78	=78	=78	=78	=78	=78	=78	=78	=78	=78	=78	=78	=78	=78	=78	=78	=78	=78	=78	=78	=78	=78	=78	=78
.	.	.	2.r	.	.	.	.	.	2.A\	no-	2.A\	no-	4f\	no-	(4dd\	no-	2.ryy	2.ryy	2.ryy	2.ryy	2.ryy	2.ryy	2.ryy
!	!	!	!	!	!	!	!	!	!	!	!	!	!	!	!LO:SIC:v:s=8cc#\L	!	!	!	!	!	!	!	!
.	.	.	.	.	.	.	.	.	.	.	.	.	8e\L	.	8cc\L	.	.	.	.	.	.	.	.
!	!	!	!	!	!	!	!	!	!	!	!	!	!	!	!LO:SIC:s=8bJ	!	!	!	!	!	!	!	!
.	.	.	.	.	.	.	.	.	.	.	.	.	8d\J	.	8b-\J	.	.	.	.	.	.	.	.
!	!	!	!	!	!	!	!	!	!	!	!	!	!	!	!LO:SIC:v:s=4cc#\)	!	!	!	!	!	!	!	!
.	.	.	.	.	.	.	.	.	.	.	.	.	4e\	.	4cc\)	.	.	.	.	.	.	.	.
!	!	!	!	!	!	!	!	!	!	!	!	!LO:LB:g=original	!	!	!	!	!	!	!	!	!	!	!
=79	=79	=79	=79	=79	=79	=79	=79	=79	=79	=79	=79	=79	=79	=79	=79	=79	=79	=79	=79	=79	=79	=79	=79
!	!	!	!	!	!	!	!	!	!	!LO:MO:mod=-bis.	!	!LO:MO:mod=-bis.	!	!LO:MO:mod=-bis.	!	!LO:MO:mod=-bis.	!	!	!	!	!	!	!
2.r	.	.	2.r	.	2.r	.	2.r	.	2D\	-bis	2A\	-bis	2f\	-bis	2dd\	-bis	2.ryy	2.ryy	2.ryy	2.ryy	2.ryy	2.ryy	2.ryy
*	*	*	*	*	*	*	*	*	*	*Xij	*	*	*	*	*	*	*	*	*	*	*	*	*
!	!	!	!	!	!	!	!	!	!	!	!LO:TX:b:i:t=Verte Quoniam:mod=	!	!	!	!	!	!	!	!	!	!	!	!
.	.	.	.	.	.	.	.	.	4r	.	4r	.	4r	.	4r	.	.	.	.	.	.	.	.
==	==	==	==	==	==	==	==	==	==	==	==	==	==	==	==	==	==	==	==	==	==	==	==
*-	*-	*-	*-	*-	*-	*-	*-	*-	*-	*-	*-	*-	*-	*-	*-	*-	*-	*-	*-	*-	*-	*-	*-
!!!system-decoration: [(g1)][(g2)]<s7>[(g3)][(g4)]<s15>
!!!RDF**kern: < = below
!!!RDF**kern: > = above
!!!RDF**kern: | = vertical stroke
!!!filter-modern: shed -X dynam -e "s/:a/:A/LX" | shed -e "s/TX(.*):t=P:/tx$1:t=P:/LG" | shed -e "s/:rj/:RJ/L" | sic -sq | modori -m | autostem -r | tie -s | humtr -p | shed -e "s/yy//" | shed -k -e "s/[<>]//g"
!!!ENC: Anastazja Marusiak
!!!END: 2020-07-01
!!!ENC: Marta Chmielewska
!!!END: 2021-11-24
!!!ENC-modern: Andrzej Kubiczek
!!!END-modern: 2022-07-12
!!!YEC: Copyright 2022 Narodowy Instytut Fryderyka Chopina (https://polishscores.org)
!!!YEM: License CC-BY-4.0 (https://creativecommons.org/licenses/by/4.0)
